!!!!SEGMENT: pl-cz--iii-743--001-008_zebrowski-marcin-jozef--magnificat-esurientes-implevit-bonis.krn
!!!cenid: 17xx:2339
!!!COM: Żebrowski, Marcin Józef
!!!COM-rismID: pe30020322
!!!CDT: 1702-1770/06/29
!!!CNT: Polish
!!!OPR: Magnificat
!!!OTL: Esurientes implevit bonis
!!!OMV: 008
!!!PDT:
!!!AGN:
!!!YEC: Copyright 2022 Narodowy Instytut Fryderyka Chopina (https://polishscores.org)
!!!YEM: License CC-BY-4.0 (https://creativecommons.org/licenses/by/4.0)
!!!SMS-siglum: PL-CZ
!!!SMS-shelfmark: III-743
!!!SMS-shelfwork: 001-008 M
!!!SMS-variant: Baſso. pro Organo.: PL-CZ III-743:26
!!!SMS-altvar: Organo.: PL-CZ III-743:30
!!!NIFC-rismSourceID: 300033495
!!!NIFC-rismChildID: 300033495
!!!NIFC-islandoraID: pl-cz:25228
!!!URL-pdf-islandora: https://repozytorium.nifc.pl/islandora/object/pl-cz%3A25228/datastream/PDF/view
!!!URL-scan: https://polish.musicsources.pl/pl/lokalizacje/galeria/rekopisy/1473 @EN{Scan on Polish Music Sources Website} @PL{Skany w portalu Dziedzictwo Muzyki Polskiej w otwartym dostępie}
!!!IIIF:
!!!ONB-nifc: UWAGA: części Magnificatu: 1. Magnificat, 2. Et exultavit, 3. Quia respexit, 4. Quia fecit, 5. Et misericordia, 6. Fecit potentiam, 7. Deposuit potentes, 8. Esurientes implevit bonis, 9. Suscepit Israel, 10. Sicut locutus, 11. Gloria patri (razem z Sicut erat i Amen)
!!!AIN: 1 alto 1 bass 2 cor 1 soprn 1 tenor 1 viola 2 violn
!!!key: C
!!!OMD:
!!!OMD-mod: Allegro
**kern	**fba	**kern	**dynam	**kern	**dynam	**kern	**dynam	**kern	**text	**kern	**text	**kern	**text	**kern	**text	**kern	**kern
*	*	*group3	*	*group3	*	*group3	*	*group2	*	*group2	*	*group2	*	*group2	*	*group1	*group1
*part10	*	*part9	*	*part8	*	*part7	*	*part6	*	*part5	*	*part4	*	*part3	*	*part2	*part1
*staff10	*	*staff9	*	*staff8	*	*staff7	*	*staff6	*	*staff5	*	*staff4	*	*staff3	*	*staff2	*staff1
*I"Baſso. pro Organo.	*	*I"Viola Oblig:	*	*I"Violino Secondo.	*	*I"Violino Primo.	*	*I"Baſso.	*	*I"Tenore.	*	*I"Alto.	*	*I"Canto.	*	*I"Cornuo Secondo. ex g.	*I"Cornuo Primo. ex g.
*I'org	*	*I'vla	*	*I'vl 2	*	*I'vl 1	*	*I'B	*	*I'T	*	*I'A	*	*I'S	*	*I'cor 2 in G	*I'cor 1 in G
*	*	*Iviola	*	*Ivioln	*	*Ivioln	*	*Ibass	*	*Itenor	*	*Ialto	*	*Isoprn	*	*Icor	*Icor
*ICklav	*	*ICstr	*	*ICstr	*	*ICstr	*	*ICvox	*	*ICvox	*	*ICvox	*	*ICvox	*	*ICbras	*ICbras
*IGcont	*	*	*	*	*	*	*	*IGcoro	*	*IGcoro	*	*IGcoro	*	*IGcoro	*	*	*
*mI"Organo	*	*mI"Viola obligato	*	*mI"Violino II	*	*mI"Violino I	*	*mI"Basso	*	*mI"Tenore	*	*mI"Alto	*	*mI"Soprano	*	*mI"Corno II in G	*mI"Corno I in G
*clefF4	*	*clefC3	*	*clefG2	*	*clefG2	*	*clefF4	*	*clefC4	*	*clefC3	*	*clefC1	*	*clefG2	*clefG2
*	*	*	*	*	*	*	*	*	*	*mclefGv2	*	*mclefG2	*	*mclefG2	*	*	*
*k[]	*	*k[]	*	*k[]	*	*k[]	*	*k[]	*	*k[]	*	*k[]	*	*k[]	*	*	*
*C:	*	*C:	*	*C:	*	*C:	*	*C:	*	*C:	*	*C:	*	*C:	*	*	*
*M3/8	*	*M3/8	*	*M3/8	*	*M3/8	*	*M3/8	*	*M3/8	*	*M3/8	*	*M3/8	*	*M3/8	*M3/8
*	*	*	*	*	*	*	*	*	*	*	*	*	*	*	*	*tacet	*tacet
=1	=1	=1	=1	=1	=1	=1	=1	=1	=1	=1	=1	=1	=1	=1	=1	=1	=1
!	!	!	!	!	!	!	!	!LO:TX:a:t=35.:mod=	!	!	!	!LO:TX:a:t=33.:mod=	!	!LO:TX:a:t=32:mod=	!	!	!
!LO:TX:b:t=allegro solo.:mod=	!	!LO:TX:a:Bi:t=Allegro:mod=	!	!LO:TX:a:Bi:t=Allegro:mod=	!	!LO:TX:a:Bi:t=Allo:mod=	!	!LO:TX:a:Bi:t=Allo.:mod=	!	!LO:TX:a:t=34:mod=	!	!LO:TX:b:t=Allegro.:mod=	!	!LO:TX:b:i:t=Allegro.:mod=	!	!LO:TX:a:t=Esurientes tacet 3/8:mod=	!LO:TX:a:t=Esurientes tacet 3/8:mod=
8C/	.	8e\	.	16r	.	1.r	.	1.r	.	1.r	.	1.r	.	1.r	.	4.ryy	4.ryy
.	.	.	.	16c/	.	.	.	.	.	.	.	.	.	.	.	.	.
16r	.	16r	.	[4g/	.	.	.	.	.	.	.	.	.	.	.	.	.
16c\LL	.	16e\LL	.	.	.	.	.	.	.	.	.	.	.	.	.	.	.
16B\	6	16d\	.	.	.	.	.	.	.	.	.	.	.	.	.	.	.
16G\JJ	.	16B\JJ	.	.	.	.	.	.	.	.	.	.	.	.	.	.	.
=2	=2	=2	=2	=2	=2	=2	=2	=2	=2	=2	=2	=2	=2	=2	=2	=2	=2
8c\	.	8e\	.	32g/LLL]	.	.	.	.	.	.	.	.	.	.	.	4.ryy	4.ryy
.	.	.	.	(32a/	.	.	.	.	.	.	.	.	.	.	.	.	.
.	.	.	.	32b/	.	.	.	.	.	.	.	.	.	.	.	.	.
.	.	.	.	32cc/JJJ)	.	.	.	.	.	.	.	.	.	.	.	.	.
16r	.	16r	.	[4g/	.	.	.	.	.	.	.	.	.	.	.	.	.
16C/LL	.	16e\LL	.	.	.	.	.	.	.	.	.	.	.	.	.	.	.
16BB/	6	16d\	.	.	.	.	.	.	.	.	.	.	.	.	.	.	.
16GG/JJ	.	16B\JJ	.	.	.	.	.	.	.	.	.	.	.	.	.	.	.
=3	=3	=3	=3	=3	=3	=3	=3	=3	=3	=3	=3	=3	=3	=3	=3	=3	=3
8AA/L	7	8c\L	.	16g/LL]	.	.	.	.	.	.	.	.	.	.	.	4.ryy	4.ryy
.	.	.	.	32f/L	.	.	.	.	.	.	.	.	.	.	.	.	.
.	.	.	.	32e/JJJ	.	.	.	.	.	.	.	.	.	.	.	.	.
8AA/	6	8c\	.	16f/LL	.	.	.	.	.	.	.	.	.	.	.	.	.
.	.	.	.	16a/	.	.	.	.	.	.	.	.	.	.	.	.	.
8BB/J	6 5	8d\J	.	16g/	.	.	.	.	.	.	.	.	.	.	.	.	.
.	.	.	.	16f/JJ	.	.	.	.	.	.	.	.	.	.	.	.	.
!	!	!	!	!LO:LB:g=original	!	!	!	!	!	!	!	!	!	!	!	!	!
=4	=4	=4	=4	=4	=4	=4	=4	=4	=4	=4	=4	=4	=4	=4	=4	=4	=4
8C/L	.	4G/	.	16e/LL	.	.	.	.	.	.	.	.	.	.	.	4.ryy	4.ryy
.	.	.	.	32c/L	.	.	.	.	.	.	.	.	.	.	.	.	.
.	.	.	.	32d/JJJ	.	.	.	.	.	.	.	.	.	.	.	.	.
8BB/	2	.	.	16e/LL	.	.	.	.	.	.	.	.	.	.	.	.	.
.	.	.	.	16d/	.	.	.	.	.	.	.	.	.	.	.	.	.
8AA/J	6	8c/	.	16e/	.	.	.	.	.	.	.	.	.	.	.	.	.
.	.	.	.	16f#X/JJ	.	.	.	.	.	.	.	.	.	.	.	.	.
=5	=5	=5	=5	=5	=5	=5	=5	=5	=5	=5	=5	=5	=5	=5	=5	=5	=5
4GG/	.	8B/	.	8g/	.	16r	.	1.r	.	1.r	.	1.r	.	1.r	.	4.ryy	4.ryy
.	.	.	.	.	.	16g/	.	.	.	.	.	.	.	.	.	.	.
!	!	!LO:N:vis=8	!	!	!	!	!	!	!	!	!	!	!	!	!	!	!
.	.	32r	.	16r	.	[4dd\	.	.	.	.	.	.	.	.	.	.	.
!	!	!LO:N:vis=16	!	!	!	!	!	!	!	!	!	!	!	!	!	!	!
.	.	32r	.	.	.	.	.	.	.	.	.	.	.	.	.	.	.
.	.	16g\LL	.	16b/LL	.	.	.	.	.	.	.	.	.	.	.	.	.
8r	.	16f#X\	.	16a/	.	.	.	.	.	.	.	.	.	.	.	.	.
.	.	16d\JJ	.	16f#X/JJ	.	.	.	.	.	.	.	.	.	.	.	.	.
!LO:LB:g=original	!	!	!	!	!	!	!	!	!	!	!	!	!	!	!	!	!
=6	=6	=6	=6	=6	=6	=6	=6	=6	=6	=6	=6	=6	=6	=6	=6	=6	=6
!LO:TX:a:t=3.	!	!	!	!	!	!	!	!	!	!	!	!	!	!	!	!	!
2.r	.	8G/	.	8b/	.	32dd\LLL]	.	.	.	.	.	.	.	.	.	4.ryy	4.ryy
.	.	.	.	.	.	(32ee\	.	.	.	.	.	.	.	.	.	.	.
.	.	.	.	.	.	32ff#X\	.	.	.	.	.	.	.	.	.	.	.
.	.	.	.	.	.	32gg\JJJ)	.	.	.	.	.	.	.	.	.	.	.
.	.	16r	.	16r	.	[4dd\	.	.	.	.	.	.	.	.	.	.	.
.	.	16g\LL	.	16b/LL	.	.	.	.	.	.	.	.	.	.	.	.	.
.	.	16f#X\	.	16a/	.	.	.	.	.	.	.	.	.	.	.	.	.
.	.	16d\JJ	.	16f#X/JJ	.	.	.	.	.	.	.	.	.	.	.	.	.
!	!	!LO:LB:g=original	!	!	!	!	!	!	!	!	!	!	!	!	!	!	!
=7	=7	=7	=7	=7	=7	=7	=7	=7	=7	=7	=7	=7	=7	=7	=7	=7	=7
.	.	8e\L	.	8g/L	.	16dd\LL]	.	.	.	.	.	.	.	.	.	4.ryy	4.ryy
.	.	.	.	.	.	32cc\L	.	.	.	.	.	.	.	.	.	.	.
.	.	.	.	.	.	32b\JJJ	.	.	.	.	.	.	.	.	.	.	.
.	.	8e\	.	8g/	.	16cc\LL	.	.	.	.	.	.	.	.	.	.	.
.	.	.	.	.	.	16ee\	.	.	.	.	.	.	.	.	.	.	.
.	.	8f#X\J	.	8a/J	.	16dd\	.	.	.	.	.	.	.	.	.	.	.
.	.	.	.	.	.	16cc\JJ	.	.	.	.	.	.	.	.	.	.	.
=8	=8	=8	=8	=8	=8	=8	=8	=8	=8	=8	=8	=8	=8	=8	=8	=8	=8
4.r	.	8g\L	.	8g/	.	16b/LL	.	.	.	.	.	.	.	.	.	4.ryy	4.ryy
.	.	.	.	.	.	32a/L	.	.	.	.	.	.	.	.	.	.	.
.	.	.	.	.	.	32g/JJJ	.	.	.	.	.	.	.	.	.	.	.
.	.	8fn\	.	8r	.	16a/LL	.	.	.	.	.	.	.	.	.	.	.
.	.	.	.	.	.	16g/	.	.	.	.	.	.	.	.	.	.	.
.	.	8d\J	.	8fn/	.	16a/	.	.	.	.	.	.	.	.	.	.	.
.	.	.	.	.	.	16b/JJ	.	.	.	.	.	.	.	.	.	.	.
=9	=9	=9	=9	=9	=9	=9	=9	=9	=9	=9	=9	=9	=9	=9	=9	=9	=9
16r	.	8c/	.	8e/	.	8cc\	.	1.r	.	1.r	.	1.r	.	1.r	.	4.ryy	4.ryy
16C/	.	.	.	.	.	.	.	.	.	.	.	.	.	.	.	.	.
[4G\	6 4	16r	.	16r	.	16r	.	.	.	.	.	.	.	.	.	.	.
!	!	!LO:TX:t=P:problem=mixed beam	!	!	!	!	!	!	!	!	!	!	!	!	!	!	!
.	.	16c\LL	.	16cc\LL	.	16ee\LL	.	.	.	.	.	.	.	.	.	.	.
!	!	!LO:SIC:v:o=16f\	!	!	!	!	!	!	!	!	!	!	!	!	!	!	!
.	5 3	16g\	.	16b\	.	16dd\	.	.	.	.	.	.	.	.	.	.	.
.	.	16G/JJ	.	16g\JJ	.	16b\JJ	.	.	.	.	.	.	.	.	.	.	.
=10	=10	=10	=10	=10	=10	=10	=10	=10	=10	=10	=10	=10	=10	=10	=10	=10	=10
32G\LLL]	6 4	8E/	.	8cc\	.	8ee\	.	.	.	.	.	.	.	.	.	4.ryy	4.ryy
32A\	.	.	.	.	.	.	.	.	.	.	.	.	.	.	.	.	.
32B\	.	.	.	.	.	.	.	.	.	.	.	.	.	.	.	.	.
32c\JJJ	.	.	.	.	.	.	.	.	.	.	.	.	.	.	.	.	.
!	!	!	!	!LO:N:vis=8	!	!	!	!	!	!	!	!	!	!	!	!	!
[4G\	6 4	16r	.	16r	.	16r	.	.	.	.	.	.	.	.	.	.	.
!	!	!LO:TX:t=P:problem=mixed beam	!	!	!	!	!	!	!	!	!	!	!	!	!	!	!
.	.	16c\LL	.	16cc\LL	.	16ee\LL	.	.	.	.	.	.	.	.	.	.	.
.	5 3	16g\	.	16b\	.	16dd\	.	.	.	.	.	.	.	.	.	.	.
.	.	16G/JJ	.	16g\JJ	.	16b\JJ	.	.	.	.	.	.	.	.	.	.	.
!	!	!	!	!	!	!LO:LB:g=original	!	!	!	!	!	!	!	!	!	!	!
=11	=11	=11	=11	=11	=11	=11	=11	=11	=11	=11	=11	=11	=11	=11	=11	=11	=11
16G\LL]	4 2	16e\LL	.	8a/L|	.	8cc\L|	.	.	.	.	.	.	.	.	.	4.ryy	4.ryy
32F\L	.	32a\L	.	.	.	.	.	.	.	.	.	.	.	.	.	.	.
32E\JJJ	.	32g\JJJ	.	.	.	.	.	.	.	.	.	.	.	.	.	.	.
16F\LL	5	8f\L	.	8a/|	.	8cc\|	.	.	.	.	.	.	.	.	.	.	.
16A\	.	.	.	.	.	.	.	.	.	.	.	.	.	.	.	.	.
16G\	.	16d\L	.	8b/J|	.	8dd\J|	.	.	.	.	.	.	.	.	.	.	.
16F\JJ	.	16g\JJ	.	.	.	.	.	.	.	.	.	.	.	.	.	.	.
=12	=12	=12	=12	=12	=12	=12	=12	=12	=12	=12	=12	=12	=12	=12	=12	=12	=12
16E\LL	6	4g\	.	16cc\LL	.	16ee\LL	.	.	.	.	.	.	.	.	.	4.ryy	4.ryy
32C\L	.	.	.	32ee\L	.	32ee\L	.	.	.	.	.	.	.	.	.	.	.
32D\JJJ	.	.	.	32dd\JJJ	.	32ff#X\J	.	.	.	.	.	.	.	.	.	.	.
16E\LL	.	.	.	8.ccT\L	.	16gg\	.	.	.	.	.	.	.	.	.	.	.
16D\	.	.	.	.	.	16ff#\	.	.	.	.	.	.	.	.	.	.	.
16E\	.	8r	.	.	.	16gg\	.	.	.	.	.	.	.	.	.	.	.
16F#X\JJ	.	.	.	16cc\Jk	.	16aa\JJ	.	.	.	.	.	.	.	.	.	.	.
!	!	!	!	!LO:LB:g=original	!	!	!	!	!	!	!	!	!	!	!	!	!
=13	=13	=13	=13	=13	=13	=13	=13	=13	=13	=13	=13	=13	=13	=13	=13	=13	=13
8GG/	.	16r	.	8b\	.	8dd\	.	1.r	.	1.r	.	1.r	.	1.r	.	4.ryy	4.ryy
.	.	16G/	.	.	.	.	.	.	.	.	.	.	.	.	.	.	.
16r	.	[4d\	.	16r	.	16r	.	.	.	.	.	.	.	.	.	.	.
!	!	!	!	!LO:TX:t=P:problem=mixed beam	!	!	!	!	!	!	!	!	!	!	!	!	!
16G\LL	.	.	.	16dd\LL	.	16bb\LL	.	.	.	.	.	.	.	.	.	.	.
16F#X\	6	.	.	16d/	.	16aa\	.	.	.	.	.	.	.	.	.	.	.
16D\JJ	.	.	.	16dd\JJ	.	16ff#X\JJ	.	.	.	.	.	.	.	.	.	.	.
=14	=14	=14	=14	=14	=14	=14	=14	=14	=14	=14	=14	=14	=14	=14	=14	=14	=14
8GG/	.	32d\LLL]	.	8d/	.	8bb\	.	.	.	.	.	.	.	.	.	4.ryy	4.ryy
.	.	(32e\	.	.	.	.	.	.	.	.	.	.	.	.	.	.	.
.	.	32f#X\	.	.	.	.	.	.	.	.	.	.	.	.	.	.	.
.	.	32g\JJJ)	.	.	.	.	.	.	.	.	.	.	.	.	.	.	.
16r	.	[4d\	.	16r	.	16r	.	.	.	.	.	.	.	.	.	.	.
!	!	!	!	!LO:TX:t=P:problem=mixed beam	!	!	!	!	!	!	!	!	!	!	!	!	!
16G\LL	.	.	.	16dd\LL	.	16bb\LL	.	.	.	.	.	.	.	.	.	.	.
16F#X\	6	.	.	16d/	.	16aa\	.	.	.	.	.	.	.	.	.	.	.
16D\JJ	.	.	.	16dd\JJ	.	16ff#X\JJ	.	.	.	.	.	.	.	.	.	.	.
!LO:LB:g=original	!	!	!	!	!	!	!	!	!	!	!	!	!	!	!	!	!
=15	=15	=15	=15	=15	=15	=15	=15	=15	=15	=15	=15	=15	=15	=15	=15	=15	=15
!	!	!	!	!LO:TX:t=P:problem=mixed beam	!	!	!	!	!	!	!	!	!	!	!	!	!
8E\L	7	16d\LL]	.	8g/L	.	8gg\L	.	.	.	.	.	.	.	.	.	4.ryy	4.ryy
.	.	32c\L	.	.	.	.	.	.	.	.	.	.	.	.	.	.	.
.	.	32B\JJJ	.	.	.	.	.	.	.	.	.	.	.	.	.	.	.
8E\	6	16c\LL	.	8ee\	.	8gg\	.	.	.	.	.	.	.	.	.	.	.
.	.	16e\	.	.	.	.	.	.	.	.	.	.	.	.	.	.	.
8F#X\J	6 5	16d\	.	8a/J	.	8aa\J	.	.	.	.	.	.	.	.	.	.	.
.	.	16c\JJ	.	.	.	.	.	.	.	.	.	.	.	.	.	.	.
=16	=16	=16	=16	=16	=16	=16	=16	=16	=16	=16	=16	=16	=16	=16	=16	=16	=16
8G\L	.	16B/LL	.	8b\L	.	8dd\L	.	.	.	.	.	.	.	.	.	4.ryy	4.ryy
.	.	32A/L	.	.	.	.	.	.	.	.	.	.	.	.	.	.	.
.	.	32G/JJJ	.	.	.	.	.	.	.	.	.	.	.	.	.	.	.
16Fn\L	6	16A/LL	.	8dd\	.	8ffn\	.	.	.	.	.	.	.	.	.	.	.
16E\	.	16G/	.	.	.	.	.	.	.	.	.	.	.	.	.	.	.
16F\	.	16A/	.	16cc\L	.	8dd\J	.	.	.	.	.	.	.	.	.	.	.
16G\JJ	.	16B/JJ	.	16b\JJ	.	.	.	.	.	.	.	.	.	.	.	.	.
=17	=17	=17	=17	=17	=17	=17	=17	=17	=17	=17	=17	=17	=17	=17	=17	=17	=17
8C/	.	8c\	.	8cc\	.	16ee\LL	.	1.r	.	1.r	.	1.r	.	1.r	.	4.ryy	4.ryy
.	.	.	.	.	.	16cc\JJ	.	.	.	.	.	.	.	.	.	.	.
16r	.	16r	.	16r	.	[4gg\	.	.	.	.	.	.	.	.	.	.	.
!	!	!LO:TX:t=P:problem=mixed beam	!	!	!	!	!	!	!	!	!	!	!	!	!	!	!
16c\LL	6	16g\LL	.	16ee\LL	.	.	.	.	.	.	.	.	.	.	.	.	.
16B\	.	16G/	.	16dd\	.	.	.	.	.	.	.	.	.	.	.	.	.
16G\JJ	.	16g\JJ	.	16b\JJ	.	.	.	.	.	.	.	.	.	.	.	.	.
=18	=18	=18	=18	=18	=18	=18	=18	=18	=18	=18	=18	=18	=18	=18	=18	=18	=18
8c\	.	8G/	.	8ee\	.	32gg\LLL]	.	.	.	.	.	.	.	.	.	4.ryy	4.ryy
.	.	.	.	.	.	(32aa\	.	.	.	.	.	.	.	.	.	.	.
.	.	.	.	.	.	32bb\	.	.	.	.	.	.	.	.	.	.	.
.	.	.	.	.	.	32ccc\JJJ)	.	.	.	.	.	.	.	.	.	.	.
16r	.	16r	.	16r	.	[4gg\	.	.	.	.	.	.	.	.	.	.	.
!	!	!LO:TX:t=P:problem=mixed beam	!	!	!	!	!	!	!	!	!	!	!	!	!	!	!
16C/LL	.	16g\LL	.	16ee\LL	.	.	.	.	.	.	.	.	.	.	.	.	.
16BB/	6	16G/	.	16dd\	.	.	.	.	.	.	.	.	.	.	.	.	.
16GG/JJ	.	16g\JJ	.	16b\JJ	.	.	.	.	.	.	.	.	.	.	.	.	.
=19	=19	=19	=19	=19	=19	=19	=19	=19	=19	=19	=19	=19	=19	=19	=19	=19	=19
8AA/L	7	8g\L	.	8cc\L	.	16gg\LL]	.	.	.	.	.	.	.	.	.	4.ryy	4.ryy
.	.	.	.	.	.	32ff\L	.	.	.	.	.	.	.	.	.	.	.
.	.	.	.	.	.	32ee\JJJ	.	.	.	.	.	.	.	.	.	.	.
8AA/	6	8f\	.	8cc\	.	16ff\LL	.	.	.	.	.	.	.	.	.	.	.
.	.	.	.	.	.	16aa\	.	.	.	.	.	.	.	.	.	.	.
8BB/J	6 5	8d\J	.	8dd\J	.	16gg\	.	.	.	.	.	.	.	.	.	.	.
.	.	.	.	.	.	16ff\JJ	.	.	.	.	.	.	.	.	.	.	.
!	!	!LO:LB:g=original	!	!	!	!	!	!	!	!	!	!	!	!	!	!	!
=20	=20	=20	=20	=20	=20	=20	=20	=20	=20	=20	=20	=20	=20	=20	=20	=20	=20
16C\LL	.	16e\LL	.	16cc\	.	16ee\	.	.	.	.	.	.	.	.	.	4.ryy	4.ryy
!	!	!	!	!LO:SIC:o=8ee\L	!	!	!	!	!	!	!	!	!	!	!	!	!
16c\	.	16e\	.	8ee	.	8ee\	.	.	.	.	.	.	.	.	.	.	.
16c\	.	16e\	.	.	.	.	.	.	.	.	.	.	.	.	.	.	.
!	!	!	!	!LO:SIC:o=8gg#X\J	!	!LO:N:vis=16	!	!	!	!	!	!	!	!	!	!	!
16c\	.	16e\	.	8gg#	.	8gg#X\	.	.	.	.	.	.	.	.	.	.	.
16c\	6	16e\	.	.	.	.	.	.	.	.	.	.	.	.	.	.	.
16c\JJ	.	16e\JJ	.	[16aa\	.	[16aa\	.	.	.	.	.	.	.	.	.	.	.
=21	=21	=21	=21	=21	=21	=21	=21	=21	=21	=21	=21	=21	=21	=21	=21	=21	=21
16B\LL	7	16d\LL	.	16aa\]	.	16aa\]	.	1.r	.	1.r	.	1.r	.	1.r	.	4.ryy	4.ryy
16B\	.	16d\	.	8dd\	.	8dd\	.	.	.	.	.	.	.	.	.	.	.
16B\	6	16d\	.	.	.	.	.	.	.	.	.	.	.	.	.	.	.
16B\	.	16d\	.	8ff#X\	.	8ff#X\	.	.	.	.	.	.	.	.	.	.	.
16B\	.	16d\	.	.	.	.	.	.	.	.	.	.	.	.	.	.	.
*custos:A	*	*	*	*	*	*	*	*	*	*	*	*	*	*	*	*	*
!	!	!	!	!	!	!LO:TX:t=P:problem=brak początku ligatury	!	!	!	!	!	!	!	!	!	!	!
16B\JJ	.	16d\JJ	.	[16gg\	.	[16gg\	.	.	.	.	.	.	.	.	.	.	.
!LO:LB:g=original	!	!	!	!LO:LB:g=original	!	!LO:LB:g=original	!	!	!	!	!	!	!	!	!	!	!
=22	=22	=22	=22	=22	=22	=22	=22	=22	=22	=22	=22	=22	=22	=22	=22	=22	=22
16A\LL	7	16c\LL	.	16gg\]	.	16gg\]	.	.	.	.	.	.	.	.	.	4.ryy	4.ryy
16A\	.	16c\	.	8cc\	.	8cc\	.	.	.	.	.	.	.	.	.	.	.
16A\	6	16c\	.	.	.	.	.	.	.	.	.	.	.	.	.	.	.
16A\	.	16c\	.	8ee\	.	8ee\	.	.	.	.	.	.	.	.	.	.	.
16A\	.	16c\	.	.	.	.	.	.	.	.	.	.	.	.	.	.	.
16A\JJ	.	16c\JJ	.	16ffn\	.	16ffn\	.	.	.	.	.	.	.	.	.	.	.
=23	=23	=23	=23	=23	=23	=23	=23	=23	=23	=23	=23	=23	=23	=23	=23	=23	=23
16G\LL	7	16B\LL	.	8.ffT\L	.	8.ffT\L	.	.	.	.	.	.	.	.	.	4.ryy	4.ryy
16G\	.	16b\	.	.	.	.	.	.	.	.	.	.	.	.	.	.	.
16A\	6	16c\	.	.	.	.	.	.	.	.	.	.	.	.	.	.	.
16A\	.	16cc\	.	16aa\L	.	16aa\L	.	.	.	.	.	.	.	.	.	.	.
16B\	6 5	16d\	.	16gg\	.	16gg\	.	.	.	.	.	.	.	.	.	.	.
16B\JJ	.	16dd\JJ	.	16ff\JJ	.	16ff\JJ	.	.	.	.	.	.	.	.	.	.	.
=24	=24	=24	=24	=24	=24	=24	=24	=24	=24	=24	=24	=24	=24	=24	=24	=24	=24
16c\LL	.	16g\LL	.	(32ee\LLL	.	(32ee\LLL	.	.	.	.	.	.	.	.	.	4.ryy	4.ryy
.	.	.	.	32aa\)	.	32aa\)	.	.	.	.	.	.	.	.	.	.	.
16E\JJ	.	16g\	.	32gg\|	.	32gg\|	.	.	.	.	.	.	.	.	.	.	.
.	.	.	.	32ccc\JJJ|	.	32ccc\JJJ|	.	.	.	.	.	.	.	.	.	.	.
!	!	!	!	!LO:SIC:o=8.dd\L	!	!	!	!	!	!	!	!	!	!	!	!	!
16F\LL	6	16a\	.	8.ddTL	.	8.ddT\L	.	.	.	.	.	.	.	.	.	.	.
16D\JJ	.	16a\	.	.	.	.	.	.	.	.	.	.	.	.	.	.	.
!LO:TX:t=P:problem=mixed beam	!	!	!	!	!	!	!	!	!	!	!	!	!	!	!	!	!
16G\LL	.	16g\	.	.	.	.	.	.	.	.	.	.	.	.	.	.	.
16GG/JJ	.	16g\JJ	.	16cc\Jk	.	16cc\Jk	.	.	.	.	.	.	.	.	.	.	.
=25	=25	=25	=25	=25	=25	=25	=25	=25	=25	=25	=25	=25	=25	=25	=25	=25	=25
4C/	.	8g\	.	4cc\	.	8e/	.	1.r	.	1.r	.	1.r	.	1.r	.	4.ryy	4.ryy
.	.	16r	.	.	.	[4cc\	.	.	.	.	.	.	.	.	.	.	.
.	.	16g\LL	.	.	.	.	.	.	.	.	.	.	.	.	.	.	.
8C/	.	16e\	.	8r	.	.	.	.	.	.	.	.	.	.	.	.	.
.	.	16c\JJ	.	.	.	.	.	.	.	.	.	.	.	.	.	.	.
=26	=26	=26	=26	=26	=26	=26	=26	=26	=26	=26	=26	=26	=26	=26	=26	=26	=26
4D\	7	8r	.	8f/	.	16cc\LL]	.	.	.	.	.	.	.	.	.	4.ryy	4.ryy
.	.	.	.	.	.	32dd\L	.	.	.	.	.	.	.	.	.	.	.
.	.	.	.	.	.	32cc\JJJ	.	.	.	.	.	.	.	.	.	.	.
.	6	8f\L	.	[4dd\	.	32b/LLL	.	.	.	.	.	.	.	.	.	.	.
.	.	.	.	.	.	32cc/	.	.	.	.	.	.	.	.	.	.	.
.	.	.	.	.	.	32b/	.	.	.	.	.	.	.	.	.	.	.
.	.	.	.	.	.	32a/JJJ	.	.	.	.	.	.	.	.	.	.	.
8D\	.	8d\J	.	.	.	32g/LLL	.	.	.	.	.	.	.	.	.	.	.
.	.	.	.	.	.	32a/	.	.	.	.	.	.	.	.	.	.	.
.	.	.	.	.	.	32g/	.	.	.	.	.	.	.	.	.	.	.
.	.	.	.	.	.	32f/JJJ	.	.	.	.	.	.	.	.	.	.	.
=27	=27	=27	=27	=27	=27	=27	=27	=27	=27	=27	=27	=27	=27	=27	=27	=27	=27
4E\	7	8r	.	16dd\LL]	.	8g/	.	.	.	.	.	.	.	.	.	4.ryy	4.ryy
.	.	.	.	32ee\L	.	.	.	.	.	.	.	.	.	.	.	.	.
.	.	.	.	32dd\JJJ	.	.	.	.	.	.	.	.	.	.	.	.	.
.	6	8g\L	.	32cc\LLL	.	[4ee\	.	.	.	.	.	.	.	.	.	.	.
.	.	.	.	32dd\	.	.	.	.	.	.	.	.	.	.	.	.	.
.	.	.	.	32cc\	.	.	.	.	.	.	.	.	.	.	.	.	.
.	.	.	.	32b\JJJ	.	.	.	.	.	.	.	.	.	.	.	.	.
8E\	.	8e\J	.	32a/LLL	.	.	.	.	.	.	.	.	.	.	.	.	.
.	.	.	.	32b/	.	.	.	.	.	.	.	.	.	.	.	.	.
.	.	.	.	32a/	.	.	.	.	.	.	.	.	.	.	.	.	.
.	.	.	.	32g/JJJ	.	.	.	.	.	.	.	.	.	.	.	.	.
=28	=28	=28	=28	=28	=28	=28	=28	=28	=28	=28	=28	=28	=28	=28	=28	=28	=28
4F\	7	8r	.	8a/	.	16ee\LL]	.	.	.	.	.	.	.	.	.	4.ryy	4.ryy
.	.	.	.	.	.	32ff\L	.	.	.	.	.	.	.	.	.	.	.
.	.	.	.	.	.	32ee\JJJ	.	.	.	.	.	.	.	.	.	.	.
.	6	8a\L	.	[4ff\	.	32dd\LLL	.	.	.	.	.	.	.	.	.	.	.
.	.	.	.	.	.	32ee\	.	.	.	.	.	.	.	.	.	.	.
.	.	.	.	.	.	32dd\	.	.	.	.	.	.	.	.	.	.	.
.	.	.	.	.	.	32cc\JJJ	.	.	.	.	.	.	.	.	.	.	.
8F\	.	8f\J	.	.	.	32b/LLL	.	.	.	.	.	.	.	.	.	.	.
.	.	.	.	.	.	32cc/	.	.	.	.	.	.	.	.	.	.	.
.	.	.	.	.	.	32b/	.	.	.	.	.	.	.	.	.	.	.
.	.	.	.	.	.	32a/JJJ	.	.	.	.	.	.	.	.	.	.	.
=29	=29	=29	=29	=29	=29	=29	=29	=29	=29	=29	=29	=29	=29	=29	=29	=29	=29
4G\	7	8r	.	16ff\LL]	.	8b\	.	1.r	.	1.r	.	1.r	.	1.r	.	4.ryy	4.ryy
.	.	.	.	32gg\L	.	.	.	.	.	.	.	.	.	.	.	.	.
.	.	.	.	32ff\JJJ	.	.	.	.	.	.	.	.	.	.	.	.	.
.	6	8b\L	.	32ee\LLL	.	[4gg\	.	.	.	.	.	.	.	.	.	.	.
.	.	.	.	32ff\	.	.	.	.	.	.	.	.	.	.	.	.	.
.	.	.	.	32ee\	.	.	.	.	.	.	.	.	.	.	.	.	.
.	.	.	.	32dd\JJJ	.	.	.	.	.	.	.	.	.	.	.	.	.
8G\	.	8g\J	.	32cc\LLL	.	.	.	.	.	.	.	.	.	.	.	.	.
.	.	.	.	32dd\	.	.	.	.	.	.	.	.	.	.	.	.	.
.	.	.	.	32cc\	.	.	.	.	.	.	.	.	.	.	.	.	.
.	.	.	.	32b\JJJ	.	.	.	.	.	.	.	.	.	.	.	.	.
!	!	!	!	!LO:LB:g=original	!	!	!	!	!	!	!	!	!	!	!	!	!
=30	=30	=30	=30	=30	=30	=30	=30	=30	=30	=30	=30	=30	=30	=30	=30	=30	=30
4A\	7	8r	.	8a/	.	16gg\LL]	.	.	.	.	.	.	.	.	.	4.ryy	4.ryy
.	.	.	.	.	.	32aa\L	.	.	.	.	.	.	.	.	.	.	.
.	.	.	.	.	.	32gg\JJJ	.	.	.	.	.	.	.	.	.	.	.
.	6	8cc\L	.	[4aa\	.	32ff\LLL	.	.	.	.	.	.	.	.	.	.	.
.	.	.	.	.	.	32gg\	.	.	.	.	.	.	.	.	.	.	.
.	.	.	.	.	.	32ff\	.	.	.	.	.	.	.	.	.	.	.
.	.	.	.	.	.	32ee\JJJ	.	.	.	.	.	.	.	.	.	.	.
8F\	.	8a\J	.	.	.	32dd\LLL	.	.	.	.	.	.	.	.	.	.	.
.	.	.	.	.	.	32ee\	.	.	.	.	.	.	.	.	.	.	.
.	.	.	.	.	.	32dd\	.	.	.	.	.	.	.	.	.	.	.
.	.	.	.	.	.	32cc\JJJ	.	.	.	.	.	.	.	.	.	.	.
!	!	!	!	!	!	!LO:PB:g=original	!	!	!	!	!	!	!	!	!	!	!
=31	=31	=31	=31	=31	=31	=31	=31	=31	=31	=31	=31	=31	=31	=31	=31	=31	=31
.	.	.	.	.	.	8qqcc/	.	.	.	.	.	.	.	.	.	.	.
4G\	9	4dd\	.	16aa\LL]	.	4b\	.	.	.	.	.	.	.	.	.	4.ryy	4.ryy
.	.	.	.	32bb\L	.	.	.	.	.	.	.	.	.	.	.	.	.
.	.	.	.	32aa\JJJ	.	.	.	.	.	.	.	.	.	.	.	.	.
.	8	.	.	32gg\LLL	.	.	.	.	.	.	.	.	.	.	.	.	.
.	.	.	.	32ff\	.	.	.	.	.	.	.	.	.	.	.	.	.
.	.	.	.	32ee\	.	.	.	.	.	.	.	.	.	.	.	.	.
.	.	.	.	32dd\JJJ	.	.	.	.	.	.	.	.	.	.	.	.	.
8E\	6	8g\	.	32cc\LLL	.	8cc\	.	.	.	.	.	.	.	.	.	.	.
.	.	.	.	32b\	.	.	.	.	.	.	.	.	.	.	.	.	.
.	.	.	.	32a\	.	.	.	.	.	.	.	.	.	.	.	.	.
.	.	.	.	32g\JJJ	.	.	.	.	.	.	.	.	.	.	.	.	.
!LO:PB:g=original	!	!	!	!	!	!	!	!	!	!	!	!	!	!	!	!	!
=32	=32	=32	=32	=32	=32	=32	=32	=32	=32	=32	=32	=32	=32	=32	=32	=32	=32
!LO:TX:t=P:problem=mixed beam	!	!	!	!	!	!	!	!	!	!	!	!	!	!	!	!	!
8F\L	6	16f\LL	.	(32a/KLL	.	(32ff\KLL	.	.	.	.	.	.	.	.	.	4.ryy	4.ryy
.	.	.	.	16.f/JJ)	.	16.dd\JJ)	.	.	.	.	.	.	.	.	.	.	.
.	.	16a\JJ	.	.	.	.	.	.	.	.	.	.	.	.	.	.	.
!	!	!LO:TX:t=P:problem=mixed beam	!	!	!	!	!	!	!	!	!	!	!	!	!	!	!
8G\	6 4	8g\L	.	(32g/KLL	.	(32ee\KLL	.	.	.	.	.	.	.	.	.	.	.
.	.	.	.	16.e/JJ)	.	16.cc\JJ)	.	.	.	.	.	.	.	.	.	.	.
8GG/J	7 3	8G/J	.	(32f/KLL	.	(32dd\KLL	.	.	.	.	.	.	.	.	.	.	.
.	.	.	.	16.d/JJ)	.	16.b\JJ)	.	.	.	.	.	.	.	.	.	.	.
=33	=33	=33	=33	=33	=33	=33	=33	=33	=33	=33	=33	=33	=33	=33	=33	=33	=33
16C/LL	.	8G/	.	8e/	.	16cc\LL	.	2.r	.	2.r	.	4.r	.	8g\	E-	4.ryy	4.ryy
*clefC1	*	*	*	*	*	*	*	*	*	*	*	*	*	*	*	*	*
*mclefG2	*	*	*	*	*	*	*	*	*	*	*	*	*	*	*	*	*
!LO:TX:b:t=tutti.:mod=solo	!	!	!	!	!	!	!	!	!	!	!	!	!	!	!	!	!
16g/JJ	.	.	.	.	.	16g\JJ	.	.	.	.	.	.	.	.	.	.	.
8a\L	.	8r	.	8r	.	8a/L	.	.	.	.	.	.	.	8a\	-su-	.	.
8b\J	.	8r	.	8r	.	8b/J	.	.	.	.	.	.	.	8b\	-ri-	.	.
=34	=34	=34	=34	=34	=34	=34	=34	=34	=34	=34	=34	=34	=34	=34	=34	=34	=34
*^	*	*	*	*	*	*	*	*	*	*	*	*	*	*	*	*	*
!LO:MO:mod=*null:null	!	!	!	!	!	!	!	!	!	!	!	!	!	!	!	!	!	!
*clefC3	*	*	*	*	*	*	*	*	*	*	*	*	*	*	*	*	*	*
4cc/	8c\L	.	4.r	.	8c/L	.	4cc\	.	.	.	.	.	8c\	E-	4cc\	-en-	4.ryy	4.ryy
.	8e\	.	.	.	8e/	.	.	.	.	.	.	.	8e\	-su-	.	.	.	.
8cc/	8f\J	.	.	.	8f/J	.	8cc\	.	.	.	.	.	8f\	-ri-	8cc\	-tes	.	.
*v	*v	*	*	*	*	*	*	*	*	*	*	*	*	*	*	*	*	*
=35	=35	=35	=35	=35	=35	=35	=35	=35	=35	=35	=35	=35	=35	=35	=35	=35	=35
!LO:MO:null:mod=*clefF4	!	!	!	!	!	!	!	!	!	!	!	!	!	!	!	!	!
*clefC4	*	*	*	*	*	*	*	*	*	*	*	*	*	*	*	*	*
!LO:MO:null:mod=!LO&colon;TX&colon;b&colon;t=[tutti]	!	!	!	!	!	!	!	!	!	!	!	!	!	!	!	!	!
!	!	!	!	!	!	!	!	!	!	!	!	!	!	!	!	!	!
8G/L	.	8G/L	.	4g/	.	8b\L	.	4.r	.	8G/	E-	4g\	-en-	8b\	E-	4.ryy	4.ryy
8A/	7	8A/	.	.	.	8cc\	.	.	.	8A/	-su-	.	.	8cc\	-su-	.	.
8B/J	6	8B/J	.	8g/	.	8dd\J	.	.	.	8B/	-ri-	8g\	-tes	8dd\	-ri-	.	.
=36	=36	=36	=36	=36	=36	=36	=36	=36	=36	=36	=36	=36	=36	=36	=36	=36	=36
!LO:MO:mod=*null:null	!	!	!	!	!	!	!	!	!	!	!	!	!	!	!	!	!
*clefF4	*	*	*	*	*	*	*	*	*	*	*	*	*	*	*	*	*
8C\L	.	[>4.c/	.	8e/L	.	[4.ee\	.	8C/	E-	[4.c\	-en-	8e\	E-	[4.ee\	-en-	4.ryy	4.ryy
8E\	6	.	.	8g/	.	.	.	8E\	-su-	.	.	8g\	-su-	.	.	.	.
8F\J	.	.	.	8a/J	.	.	.	8F\	-ri-	.	.	8a\	-ri-	.	.	.	.
!	!	!LO:LB:g=original	!	!	!	!	!	!	!	!	!	!LO:PB:g=original	!	!	!	!	!
=37	=37	=37	=37	=37	=37	=37	=37	=37	=37	=37	=37	=37	=37	=37	=37	=37	=37
!	!	!LO:TX:t=P:problem=brak zakończenia ligatury	!	!	!	!	!	!	!	!	!	!	!	!	!	!	!
4G\	6 4	8c/L]	.	4.g/	.	8ee\L]	.	4G\	-en-	8c\L]	.	4g\	-en-	8ee\L]	.	4.ryy	4.ryy
.	.	16B/L	.	.	.	16dd\L	.	.	.	16B\L	.	.	.	16dd\L	.	.	.
.	.	16A/J	.	.	.	16cc\J	.	.	.	16A\JJ	.	.	.	16cc\JJ	.	.	.
8G\	5 3	8B/J	.	.	.	8dd\J	.	8G\	-tes	8B\	-tes	8g\	-tes	8dd\	-tes	.	.
=38	=38	=38	=38	=38	=38	=38	=38	=38	=38	=38	=38	=38	=38	=38	=38	=38	=38
8A\L	6	8A/L	.	(8cc\L	.	16cc\LL	.	8A\	im-	8A/	E-	8cc\	im-	8ff\	im-	4.ryy	4.ryy
.	.	.	.	.	.	16ff\	.	.	.	.	.	.	.	.	.	.	.
8G\	6	8B/	.	8b\)	.	16b\	.	8G\	-ple-	8B\	-su-	8b\	-ple-	8ee\	-ple-	.	.
.	.	.	.	.	.	16ee\	.	.	.	.	.	.	.	.	.	.	.
8F\J	6	8d/J	.	8a\J	.	16a\	.	8F\	-vit	8d\	-ri-	8a\	-vit	8dd\	-vit	.	.
.	.	.	.	.	.	16cc\JJ	.	.	.	.	.	.	.	.	.	.	.
!	!	!	!	!	!	!	!	!	!	!LO:LB:g=original	!	!	!	!LO:LB:g=original	!	!	!
=39	=39	=39	=39	=39	=39	=39	=39	=39	=39	=39	=39	=39	=39	=39	=39	=39	=39
8E\L	6	4.G/	.	(8g/L	.	16g\LL	.	(8E\L	bo-	4G/	-en-	(8g\L	bo-	(8cc\L	bo-	4.ryy	4.ryy
.	.	.	.	.	.	16cc\	.	.	.	.	.	.	.	.	.	.	.
8D\	6	.	.	8f/)	.	16f\	.	8D\J)	.	.	.	8f\J)	.	8b\J)	.	.	.
.	.	.	.	.	.	16b\	.	.	.	.	.	.	.	.	.	.	.
8C\J	5	.	.	8e/J	.	16e\	.	8C/	-nis	8G/	-tes	8e\	-nis	8cc\	-nis	.	.
.	.	.	.	.	.	16cc\JJ	.	.	.	.	.	.	.	.	.	.	.
!	!	!	!	!LO:LB:g=original	!	!	!	!	!	!	!	!	!	!	!	!	!
=40	=40	=40	=40	=40	=40	=40	=40	=40	=40	=40	=40	=40	=40	=40	=40	=40	=40
*clefC3	*	*	*	*	*	*	*	*	*	*	*	*	*	*	*	*	*
*mclefG2	*	*	*	*	*	*	*	*	*	*	*	*	*	*	*	*	*
!	!	!	!LO:MO:null:mod=!LO&colon;DY&colon;ed=brack	!	!	!	!LO:MO:null:mod=!LO&colon;DY&colon;ed=brack	!	!	!	!	!	!	!	!	!	!
!	!	!	!	!	!	!	!	!	!	!	!	!	!	!	!	!	!
!LO:TX:b:t=solo.:mod=solo	!	!	!LO:MO:null:mod=p	!	!LO:DY:t=pia	!	!LO:MO:null:mod=p	!	!	!	!	!	!	!	!	!	!
8a\L	6	(8a\L	.	(8cc\L	p	(8ff\L	.	2.r	.	2.r	.	2.r	.	2.r	.	4.ryy	4.ryy
8g\	6	8g\)	.	8b\)	.	8ee\	.	.	.	.	.	.	.	.	.	.	.
8f\J	6	8f\J	.	8a\J	.	8dd\J)	.	.	.	.	.	.	.	.	.	.	.
=41	=41	=41	=41	=41	=41	=41	=41	=41	=41	=41	=41	=41	=41	=41	=41	=41	=41
8e\L	6	(8e\L	.	(8g/L	.	8gg\L	.	.	.	.	.	.	.	.	.	4.ryy	4.ryy
8d\	6	8d\)	.	8f/)	.	8b\	.	.	.	.	.	.	.	.	.	.	.
8c\J	5	8c\J	.	8e/J	.	8cc\J	.	.	.	.	.	.	.	.	.	.	.
=42	=42	=42	=42	=42	=42	=42	=42	=42	=42	=42	=42	=42	=42	=42	=42	=42	=42
*clefF4	*	*	*	*	*	*	*	*	*	*	*	*	*	*	*	*	*
!	!	!	!LO:MO:null:mod=!LO&colon;DY&colon;ed=brack	!	!	!	!LO:MO:null:mod=!LO&colon;DY&colon;ed=brack	!	!	!	!	!	!	!	!	!	!
!	!	!	!	!	!	!	!	!	!	!	!	!	!	!	!	!	!
!LO:TX:b:t=tutti	!	!	!LO:MO:null:mod=f	!	!LO:DY:t=for	!	!LO:MO:null:mod=f	!	!	!	!	!	!	!	!	!	!
8A\L	6	8A/L	.	8cc\L	f	16cc\LL	.	8A\	im-	8A/	im-	8cc\	im-	8ff\	im-	4.ryy	4.ryy
.	.	.	.	.	.	16ff\	.	.	.	.	.	.	.	.	.	.	.
8G\	6	8B/	.	8b\	.	16ee\	.	8G\	-ple-	8B\	-ple-	8b\	-ple-	8ee\	-ple-	.	.
.	.	.	.	.	.	16b\	.	.	.	.	.	.	.	.	.	.	.
8F\J	6	8d/J	.	8a\J	.	16a\	.	8F\	-vit	8d\	-vit	8a\	-vit	8dd\	-vit	.	.
.	.	.	.	.	.	16dd\JJ	.	.	.	.	.	.	.	.	.	.	.
!LO:LB:g=original	!	!	!	!	!	!LO:LB:g=original	!	!	!	!	!	!	!	!	!	!	!
=43	=43	=43	=43	=43	=43	=43	=43	=43	=43	=43	=43	=43	=43	=43	=43	=43	=43
8E/L	6	4.G/	.	8g/L	.	16cc\LL	.	(8E\L	bo-	4G/	bo-	(8g\L	bo-	(8cc\L	bo-	4.ryy	4.ryy
.	.	.	.	.	.	16g\	.	.	.	.	.	.	.	.	.	.	.
8D/	6	.	.	8f/	.	16f\	.	8D\J)	.	.	.	8f\J)	.	8b\J)	.	.	.
.	.	.	.	.	.	16b\	.	.	.	.	.	.	.	.	.	.	.
8C/J	5	.	.	8e/J	.	16e\	.	8C/	-nis	8G/	-nis	8e\	-nis	8cc\	-nis	.	.
.	.	.	.	.	.	16cc\JJ	.	.	.	.	.	.	.	.	.	.	.
!	!	!	!	!	!	!	!	!LO:LB:g=original	!	!	!	!	!	!	!	!	!
=44	=44	=44	=44	=44	=44	=44	=44	=44	=44	=44	=44	=44	=44	=44	=44	=44	=44
8G\L	.	8g\L	.	8b\L	.	8dd\L	.	8G\	bo-	(8B\	bo-	4.g\	bo-	8dd\	bo-	4.ryy	4.ryy
16C\L	.	16e\L	.	8.ccT\	.	8.eet\	.	4C/	.	4cT\)	.	.	.	4eet\	.	.	.
16D\	.	16f\	.	.	.	.	.	.	.	.	.	.	.	.	.	.	.
16E\	.	16g\	.	.	.	.	.	.	.	.	.	.	.	.	.	.	.
16F\JJ	.	16a\JJ	.	(32b\LL	.	(32dd\LL	.	.	.	.	.	.	.	.	.	.	.
.	.	.	.	32cc\JJJ)	.	32ee\JJJ)	.	.	.	.	.	.	.	.	.	.	.
=45	=45	=45	=45	=45	=45	=45	=45	=45	=45	=45	=45	=45	=45	=45	=45	=45	=45
.	.	.	.	8qqcc/	.	8qqee/	.	.	.	.	.	.	.	.	.	.	.
!LO:TX:t=P:problem=mixed beam	!	!	!	!	!	!	!	!	!	!	!	!	!	!	!	!	!
8G\L	.	4.g\	.	4.b/	.	4.dd\	.	4.GG/	-nis	4.B\	-nis	4.g\	-nis	4.dd\	-nis	4.ryy	4.ryy
8D/	.	.	.	.	.	.	.	.	.	.	.	.	.	.	.	.	.
8GG/J	.	.	.	.	.	.	.	.	.	.	.	.	.	.	.	.	.
=46	=46	=46	=46	=46	=46	=46	=46	=46	=46	=46	=46	=46	=46	=46	=46	=46	=46
16E\LL	7 #	16b\LL	.	16dd\LL	.	16gg#X\LL	.	4.E\	et	4.B\	et	4.g#X\	et	4.dd\	et	4.ryy	4.ryy
16E\	.	16b\	.	16dd\	.	16gg#\	.	.	.	.	.	.	.	.	.	.	.
16E\	.	16b\	.	16dd\	.	16gg#\	.	.	.	.	.	.	.	.	.	.	.
16E\	.	16b\	.	16dd\	.	16gg#\	.	.	.	.	.	.	.	.	.	.	.
16E\	.	16b\	.	16dd\	.	16gg#\	.	.	.	.	.	.	.	.	.	.	.
16E\JJ	.	16b\JJ	.	16dd\JJ	.	16gg#\JJ	.	.	.	.	.	.	.	.	.	.	.
=47	=47	=47	=47	=47	=47	=47	=47	=47	=47	=47	=47	=47	=47	=47	=47	=47	=47
16E\LL	6 4	16a\LL	.	16cc\LL	.	16aa\LL	.	8.E\	di-	8.A/	di-	8.a\	di-	8.cc\	di-	4.ryy	4.ryy
16E\	.	16a\	.	16cc\	.	16aa\	.	.	.	.	.	.	.	.	.	.	.
16E\	.	16a\	.	16cc\	.	16aa\	.	.	.	.	.	.	.	.	.	.	.
16E\	.	16a\	.	16cc\	.	16aa\	.	16E\	-vi-	16A/	-vi-	16a\	-vi-	16cc\	-vi-	.	.
16E\	4 n3r	16a\	.	16cc\	.	16ggn\	.	8E\	-tes	8A/	-tes	8gn\	-tes	8cc\	-tes	.	.
16E\JJ	.	16a\JJ	.	16cc\JJ	.	16gg\JJ	.	.	.	.	.	.	.	.	.	.	.
=48	=48	=48	=48	=48	=48	=48	=48	=48	=48	=48	=48	=48	=48	=48	=48	=48	=48
16D\LL	7 #	16a\LL	.	16cc\LL	.	16ff#X\LL	.	4.D/	et	4.A/	et	4.f#X\	et	4.cc\	et	4.ryy	4.ryy
16D\	.	16a\	.	16cc\	.	16ff#\	.	.	.	.	.	.	.	.	.	.	.
16D\	.	16a\	.	16cc\	.	16ff#\	.	.	.	.	.	.	.	.	.	.	.
16D\	.	16a\	.	16cc\	.	16ff#\	.	.	.	.	.	.	.	.	.	.	.
16D\	.	16a\	.	16cc\	.	16ff#\	.	.	.	.	.	.	.	.	.	.	.
16D\JJ	.	16a\JJ	.	16cc\JJ	.	16ff#\JJ	.	.	.	.	.	.	.	.	.	.	.
=49	=49	=49	=49	=49	=49	=49	=49	=49	=49	=49	=49	=49	=49	=49	=49	=49	=49
16D\LL	6 4	16g\LL	.	16b/LL	.	16gg\LL	.	8.D/	di-	8.G/	di-	8.g\	di-	8.b\	di-	4.ryy	4.ryy
16D\	.	16g\	.	16b/	.	16gg\	.	.	.	.	.	.	.	.	.	.	.
16D\	.	16g\	.	16b/	.	16gg\	.	.	.	.	.	.	.	.	.	.	.
16D\	.	16g\	.	16b/	.	16gg\	.	16D/	-vi-	16G/	-vi-	16g\	-vi-	16b\	-vi-	.	.
16D\	4 n3r	16g\	.	16b/	.	16ffn\	.	8D/	-tes	8G/	-tes	8fn\	-tes	8b\	-tes	.	.
16D\JJ	.	16g\JJ	.	16b/JJ	.	16ff\JJ	.	.	.	.	.	.	.	.	.	.	.
!	!	!	!	!	!	!	!	!	!	!LO:LB:g=original	!	!LO:LB:g=original	!	!	!	!	!
=50	=50	=50	=50	=50	=50	=50	=50	=50	=50	=50	=50	=50	=50	=50	=50	=50	=50
16C/LL	.	16g\LL	.	16cc\LL	.	16ee\LL	.	4.C/	di-	(4G/	di-	4.e\	di-	4.cc\	di-	4.ryy	4.ryy
16C/	.	16g\	.	16cc\	.	16ee\	.	.	.	.	.	.	.	.	.	.	.
16C/	.	16g\	.	16cc\	.	16ee\	.	.	.	.	.	.	.	.	.	.	.
16C/	.	16g\	.	16cc\	.	16ee\	.	.	.	.	.	.	.	.	.	.	.
16C/	.	16cc\	.	16cc\	.	16ee\	.	.	.	8c\)	.	.	.	.	.	.	.
16C/JJ	.	16cc\JJ	.	16cc\JJ	.	16ee\JJ	.	.	.	.	.	.	.	.	.	.	.
!	!	!	!	!LO:LB:g=original	!	!	!	!	!	!	!	!	!	!	!	!	!
=51	=51	=51	=51	=51	=51	=51	=51	=51	=51	=51	=51	=51	=51	=51	=51	=51	=51
16D\LL	7 #	16a\LL	.	16cc\LL	.	16ff#X\LL	.	4D/	-mi-	4A/	-mi-	4f#X\	-mi-	4cc\	-mi-	4.ryy	4.ryy
16D\	.	16a\	.	16cc\	.	16ff#\	.	.	.	.	.	.	.	.	.	.	.
16D\	.	16a\	.	16cc\	.	16ff#\	.	.	.	.	.	.	.	.	.	.	.
16D\	.	16a\	.	16cc\	.	16ff#\	.	.	.	.	.	.	.	.	.	.	.
16E\	5	16g\	.	16b\	.	16gg\	.	8E/	-sit	8G/	-sit	8g\	-sit	8b\	-sit	.	.
16E\JJ	.	16g\JJ	.	16b\JJ	.	16gg\JJ	.	.	.	.	.	.	.	.	.	.	.
!LO:LB:g=original	!	!	!	!	!	!	!	!	!	!	!	!	!	!	!	!	!
=52	=52	=52	=52	=52	=52	=52	=52	=52	=52	=52	=52	=52	=52	=52	=52	=52	=52
16C/LL	6 5	16e\LL	.	16a/LL	.	16gg\LL	.	8C/	in-	8e\	in-	8g\	in-	8a\	in-	4.ryy	4.ryy
16C/	.	16e\	.	16a/	.	16gg\	.	.	.	.	.	.	.	.	.	.	.
16D/	#	16d\	.	16a/	.	16ff#X\	.	4D/	-a-	4d\	-a-	4f#Xt\	-a-	4aT\	-a-	.	.
16D/	.	16d\	.	16a/	.	16ff#\	.	.	.	.	.	.	.	.	.	.	.
16DD/	7	16d\	.	16a/	.	16ff#\	.	.	.	.	.	.	.	.	.	.	.
16DD/JJ	.	16d\JJ	.	16a/JJ	.	16ff#\JJ	.	.	.	.	.	.	.	.	.	.	.
!	!	!	!	!	!	!LO:LB:g=original	!	!	!	!	!	!	!	!	!	!	!
=53	=53	=53	=53	=53	=53	=53	=53	=53	=53	=53	=53	=53	=53	=53	=53	=53	=53
8GG/	.	8d\	.	16r	.	4gg\	.	4GG/	-nes	4d\	-nes	4g\	-nes	4g/	-nes	4.ryy	4.ryy
.	.	.	.	16g/	.	.	.	.	.	.	.	.	.	.	.	.	.
16r	.	16r	.	[4dd\	.	.	.	.	.	.	.	.	.	.	.	.	.
!LO:TX:b:t=solo.:mod=solo	!	!	!	!	!	!	!	!	!	!	!	!	!	!	!	!	!
16G\LL	.	16b\LL	.	.	.	.	.	.	.	.	.	.	.	.	.	.	.
16F#X\	6	16a\	.	.	.	8r	.	8r	.	8r	.	8r	.	8r	.	.	.
16D\JJ	.	16f#X\JJ	.	.	.	.	.	.	.	.	.	.	.	.	.	.	.
!	!	!LO:LB:g=original	!	!	!	!	!	!LO:LB:g=original	!	!	!	!	!	!LO:PB:g=original	!	!	!
=54	=54	=54	=54	=54	=54	=54	=54	=54	=54	=54	=54	=54	=54	=54	=54	=54	=54
!	!	!	!	!	!	!	!	!LO:TX:a:t=27.:mod=	!	!LO:TX:a:t=26.:mod=	!	!LO:TX:a:t=25.:mod=	!	!LO:TX:a:t=24.:mod=	!	!	!
8GG/	.	8b\	.	32dd\LLL]	.	2.r	.	1.r	.	1.r	.	1.r	.	1.r	.	4.ryy	4.ryy
.	.	.	.	(32ee\	.	.	.	.	.	.	.	.	.	.	.	.	.
.	.	.	.	32ff#X\	.	.	.	.	.	.	.	.	.	.	.	.	.
.	.	.	.	32gg\JJJ)	.	.	.	.	.	.	.	.	.	.	.	.	.
16r	.	16r	.	[4dd\	.	.	.	.	.	.	.	.	.	.	.	.	.
16G\LL	.	16b\LL	.	.	.	.	.	.	.	.	.	.	.	.	.	.	.
16F#X\	6	16a\	.	.	.	.	.	.	.	.	.	.	.	.	.	.	.
16D\JJ	.	16f#X\JJ	.	.	.	.	.	.	.	.	.	.	.	.	.	.	.
=55	=55	=55	=55	=55	=55	=55	=55	=55	=55	=55	=55	=55	=55	=55	=55	=55	=55
8E\L	7	8g\L	.	16dd\LL]	.	.	.	.	.	.	.	.	.	.	.	4.ryy	4.ryy
.	.	.	.	32cc\L	.	.	.	.	.	.	.	.	.	.	.	.	.
.	.	.	.	32b\JJJ	.	.	.	.	.	.	.	.	.	.	.	.	.
8E\	6	8g\	.	16cc\LL	.	.	.	.	.	.	.	.	.	.	.	.	.
.	.	.	.	16ee\	.	.	.	.	.	.	.	.	.	.	.	.	.
8F#X\J	6 5	8a\J	.	16dd\	.	.	.	.	.	.	.	.	.	.	.	.	.
.	.	.	.	16cc\JJ	.	.	.	.	.	.	.	.	.	.	.	.	.
=56	=56	=56	=56	=56	=56	=56	=56	=56	=56	=56	=56	=56	=56	=56	=56	=56	=56
8G\L	.	4d\	.	16b/LL	.	4.r	.	.	.	.	.	.	.	.	.	4.ryy	4.ryy
.	.	.	.	32g/L	.	.	.	.	.	.	.	.	.	.	.	.	.
.	.	.	.	32a/JJJ	.	.	.	.	.	.	.	.	.	.	.	.	.
8F#X\	4 2	.	.	16b\LL	.	.	.	.	.	.	.	.	.	.	.	.	.
.	.	.	.	16a\	.	.	.	.	.	.	.	.	.	.	.	.	.
8E\J	6	8g\	.	16b\	.	.	.	.	.	.	.	.	.	.	.	.	.
.	.	.	.	16cc#X\JJ	.	.	.	.	.	.	.	.	.	.	.	.	.
=57	=57	=57	=57	=57	=57	=57	=57	=57	=57	=57	=57	=57	=57	=57	=57	=57	=57
4D\	#	8f#X\	.	8dd\	.	16r	.	.	.	.	.	.	.	.	.	4.ryy	4.ryy
.	.	.	.	.	.	16dd\	.	.	.	.	.	.	.	.	.	.	.
.	.	16r	.	16r	.	[4aa\	.	.	.	.	.	.	.	.	.	.	.
.	.	16dd\LL	.	16ff#X\LL	.	.	.	.	.	.	.	.	.	.	.	.	.
8r	.	16cc#X\	.	16ee\	.	.	.	.	.	.	.	.	.	.	.	.	.
.	.	16a\JJ	.	16cc#X\JJ	.	.	.	.	.	.	.	.	.	.	.	.	.
=58	=58	=58	=58	=58	=58	=58	=58	=58	=58	=58	=58	=58	=58	=58	=58	=58	=58
!LO:TX:a:t=3.:mod=	!	!	!	!	!	!	!	!	!	!	!	!	!	!	!	!	!
2.r	.	8d\	.	8ff#X\	.	32aa\LLL]	.	1.r	.	1.r	.	1.r	.	1.r	.	4.ryy	4.ryy
.	.	.	.	.	.	(32bb\	.	.	.	.	.	.	.	.	.	.	.
.	.	.	.	.	.	32ccc#X\	.	.	.	.	.	.	.	.	.	.	.
.	.	.	.	.	.	32ddd\JJJ)	.	.	.	.	.	.	.	.	.	.	.
.	.	16r	.	16r	.	[4aa\	.	.	.	.	.	.	.	.	.	.	.
.	.	16dd\LL	.	16ff#\LL	.	.	.	.	.	.	.	.	.	.	.	.	.
.	.	16cc#X\	.	16ee\	.	.	.	.	.	.	.	.	.	.	.	.	.
.	.	16a\JJ	.	16cc#X\JJ	.	.	.	.	.	.	.	.	.	.	.	.	.
!	!	!	!	!LO:LB:g=original	!	!	!	!	!	!	!	!	!	!	!	!	!
=59	=59	=59	=59	=59	=59	=59	=59	=59	=59	=59	=59	=59	=59	=59	=59	=59	=59
.	.	8b\L	.	8dd\L	.	16aa\LL]	.	.	.	.	.	.	.	.	.	4.ryy	4.ryy
.	.	.	.	.	.	32gg\L	.	.	.	.	.	.	.	.	.	.	.
.	.	.	.	.	.	32ff#X\JJJ	.	.	.	.	.	.	.	.	.	.	.
.	.	8b\	.	8dd\	.	16gg\LL	.	.	.	.	.	.	.	.	.	.	.
.	.	.	.	.	.	16bb\	.	.	.	.	.	.	.	.	.	.	.
.	.	8cc#X\J	.	8ee\J	.	16aa\	.	.	.	.	.	.	.	.	.	.	.
.	.	.	.	.	.	16gg\JJ	.	.	.	.	.	.	.	.	.	.	.
=60	=60	=60	=60	=60	=60	=60	=60	=60	=60	=60	=60	=60	=60	=60	=60	=60	=60
4.r	.	8dd\L	.	4a/	.	16ff#X\LL	.	.	.	.	.	.	.	.	.	4.ryy	4.ryy
.	.	.	.	.	.	32ee\L	.	.	.	.	.	.	.	.	.	.	.
.	.	.	.	.	.	32dd\JJJ	.	.	.	.	.	.	.	.	.	.	.
.	.	8ccn\	.	.	.	16ee\LL	.	.	.	.	.	.	.	.	.	.	.
.	.	.	.	.	.	16dd\	.	.	.	.	.	.	.	.	.	.	.
.	.	8a\J	.	8ccn\	.	16ee\	.	.	.	.	.	.	.	.	.	.	.
.	.	.	.	.	.	16ff#X\JJ	.	.	.	.	.	.	.	.	.	.	.
=61	=61	=61	=61	=61	=61	=61	=61	=61	=61	=61	=61	=61	=61	=61	=61	=61	=61
16r	.	16g\LL	.	8b/	.	8gg\	.	.	.	.	.	.	.	.	.	4.ryy	4.ryy
16GG/	.	16d\JJ	.	.	.	.	.	.	.	.	.	.	.	.	.	.	.
[4D\	6 4	16r	.	16r	.	16r	.	.	.	.	.	.	.	.	.	.	.
!	!	!LO:TX:t=P:problem=mixed beam	!	!	!	!	!	!	!	!	!	!	!	!	!	!	!
.	.	16d\LL	.	16g/LL	.	16b/LL	.	.	.	.	.	.	.	.	.	.	.
.	5 #	16D/	.	16f#X/	.	16a/	.	.	.	.	.	.	.	.	.	.	.
.	.	16d\JJ	.	16d/JJ	.	16f#X/JJ	.	.	.	.	.	.	.	.	.	.	.
=62	=62	=62	=62	=62	=62	=62	=62	=62	=62	=62	=62	=62	=62	=62	=62	=62	=62
32D\LLL]	6 4	8D/	.	8g/	.	8b/	.	1.r	.	1.r	.	1.r	.	1.r	.	4.ryy	4.ryy
32E\	.	.	.	.	.	.	.	.	.	.	.	.	.	.	.	.	.
32F#X\	.	.	.	.	.	.	.	.	.	.	.	.	.	.	.	.	.
32G\JJJ	.	.	.	.	.	.	.	.	.	.	.	.	.	.	.	.	.
[>4D/	6 4	16r	.	16r	.	16r	.	.	.	.	.	.	.	.	.	.	.
!	!	!LO:TX:t=P:problem=mixed beam	!	!	!	!	!	!	!	!	!	!	!	!	!	!	!
.	.	16d\LL	.	16g/LL	.	16b/LL	.	.	.	.	.	.	.	.	.	.	.
.	5 #	16D/	.	16f#X/	.	16a/	.	.	.	.	.	.	.	.	.	.	.
.	.	16d\JJ	.	16d/JJ	.	16f#X/JJ	.	.	.	.	.	.	.	.	.	.	.
!LO:LB:g=original	!	!	!	!	!	!	!	!	!	!	!	!	!	!	!	!	!
=63	=63	=63	=63	=63	=63	=63	=63	=63	=63	=63	=63	=63	=63	=63	=63	=63	=63
!LO:TX:t=P:problem=koniec ligatury na dole	!	!	!	!LO:SIC:o=8e/L	!	!	!	!	!	!	!	!	!	!	!	!	!
16D/LL]	4 2	16B\LL	.	8e|L	.	8g/L|	.	.	.	.	.	.	.	.	.	4.ryy	4.ryy
32C/L	.	32e\L	.	.	.	.	.	.	.	.	.	.	.	.	.	.	.
32BB/JJJ	.	32d\JJJ	.	.	.	.	.	.	.	.	.	.	.	.	.	.	.
!	!	!	!	!LO:SIC:o=8e/	!	!	!	!	!	!	!	!	!	!	!	!	!
16C/LL	5	8c\L	.	8e|	.	8g/|	.	.	.	.	.	.	.	.	.	.	.
16E/	.	.	.	.	.	.	.	.	.	.	.	.	.	.	.	.	.
!	!	!	!	!LO:SIC:o=8f#X/J	!	!	!	!	!	!	!	!	!	!	!	!	!
16D/	#	16A\L	.	8f#J|	.	8a/J|	.	.	.	.	.	.	.	.	.	.	.
16C/JJ	.	16d\JJ	.	.	.	.	.	.	.	.	.	.	.	.	.	.	.
=64	=64	=64	=64	=64	=64	=64	=64	=64	=64	=64	=64	=64	=64	=64	=64	=64	=64
16BB/LL	6	16d\LL	.	8g/	.	16b\LL	.	.	.	.	.	.	.	.	.	4.ryy	4.ryy
32GG/L	.	32B\L	.	.	.	32b\L	.	.	.	.	.	.	.	.	.	.	.
32AA/JJJ	.	32A\JJJ	.	.	.	32cc#X\JJJ	.	.	.	.	.	.	.	.	.	.	.
!	!	!LO:TX:t=P:problem=mixed beam	!	!	!	!	!	!	!	!	!	!	!	!	!	!	!
16BB/LL	.	8.G/L	.	8r	.	16dd\LL	.	.	.	.	.	.	.	.	.	.	.
16AA/	.	.	.	.	.	16cc#\	.	.	.	.	.	.	.	.	.	.	.
16BB/	.	.	.	8r	.	16dd\	.	.	.	.	.	.	.	.	.	.	.
16C#X/JJ	.	16g\Jk	.	.	.	16ee\JJ	.	.	.	.	.	.	.	.	.	.	.
!	!	!	!	!	!	!LO:LB:g=original	!	!	!	!	!	!	!	!	!	!	!
=65	=65	=65	=65	=65	=65	=65	=65	=65	=65	=65	=65	=65	=65	=65	=65	=65	=65
[>4.D/	#	4f#X\	.	16r	.	4a/	.	.	.	.	.	.	.	.	.	4.ryy	4.ryy
.	.	.	.	16a/	.	.	.	.	.	.	.	.	.	.	.	.	.
.	.	.	.	[4dd\	.	.	.	.	.	.	.	.	.	.	.	.	.
.	.	8r	.	.	.	16r	.	.	.	.	.	.	.	.	.	.	.
.	.	.	.	.	.	16dd\	.	.	.	.	.	.	.	.	.	.	.
=66	=66	=66	=66	=66	=66	=66	=66	=66	=66	=66	=66	=66	=66	=66	=66	=66	=66
!LO:TX:b:t=tasto solo.:mod=tasto solo	!	!	!	!	!	!	!	!	!	!	!	!	!	!	!	!	!
4.D/_>	.	8g\L	.	32dd\LLL]	.	8.ee\L	.	1.r	.	1.r	.	1.r	.	1.r	.	4.ryy	4.ryy
.	.	.	.	32gg\	.	.	.	.	.	.	.	.	.	.	.	.	.
.	.	.	.	32ee\	.	.	.	.	.	.	.	.	.	.	.	.	.
.	.	.	.	32b\JJJ	.	.	.	.	.	.	.	.	.	.	.	.	.
.	.	.	.	8qqb/	.	.	.	.	.	.	.	.	.	.	.	.	.
.	.	8a\	.	[4cc\	.	.	.	.	.	.	.	.	.	.	.	.	.
.	.	.	.	.	.	16aa\L	.	.	.	.	.	.	.	.	.	.	.
.	.	8g\J	.	.	.	16bb\	.	.	.	.	.	.	.	.	.	.	.
.	.	.	.	.	.	16ccc\JJ	.	.	.	.	.	.	.	.	.	.	.
=67	=67	=67	=67	=67	=67	=67	=67	=67	=67	=67	=67	=67	=67	=67	=67	=67	=67
4.D/_>	.	8f#X\L	.	32cc\LLL]	.	8.dd\L	.	.	.	.	.	.	.	.	.	4.ryy	4.ryy
.	.	.	.	32ff#X\	.	.	.	.	.	.	.	.	.	.	.	.	.
.	.	.	.	32dd\	.	.	.	.	.	.	.	.	.	.	.	.	.
.	.	.	.	32a\JJJ	.	.	.	.	.	.	.	.	.	.	.	.	.
.	.	.	.	8qqa/	.	.	.	.	.	.	.	.	.	.	.	.	.
.	.	8g\	.	[>4b/	.	.	.	.	.	.	.	.	.	.	.	.	.
.	.	.	.	.	.	16gg\L	.	.	.	.	.	.	.	.	.	.	.
.	.	8f#\J	.	.	.	16aa\	.	.	.	.	.	.	.	.	.	.	.
.	.	.	.	.	.	16bb\JJ	.	.	.	.	.	.	.	.	.	.	.
=68	=68	=68	=68	=68	=68	=68	=68	=68	=68	=68	=68	=68	=68	=68	=68	=68	=68
.	.	.	.	.	.	8qqdd/	.	.	.	.	.	.	.	.	.	.	.
4.D/_>	.	8e\L	.	32b\LLL]	.	8.cc\L	.	.	.	.	.	.	.	.	.	4.ryy	4.ryy
.	.	.	.	32ee\	.	.	.	.	.	.	.	.	.	.	.	.	.
.	.	.	.	32cc\	.	.	.	.	.	.	.	.	.	.	.	.	.
.	.	.	.	32g\JJJ	.	.	.	.	.	.	.	.	.	.	.	.	.
.	.	.	.	8qqg/	.	.	.	.	.	.	.	.	.	.	.	.	.
.	.	8f#X\	.	[4a/	.	.	.	.	.	.	.	.	.	.	.	.	.
.	.	.	.	.	.	16ff#X\L	.	.	.	.	.	.	.	.	.	.	.
!	!	!LO:TX:b:i:t=Volti Subito.:mod=	!	!	!	!	!	!	!	!	!	!	!	!	!	!	!
.	.	8e\J	.	.	.	16gg\	.	.	.	.	.	.	.	.	.	.	.
.	.	.	.	.	.	16aa\JJ	.	.	.	.	.	.	.	.	.	.	.
!	!	!LO:PB:g=original	!	!	!	!	!	!	!	!	!	!	!	!	!	!	!
=69	=69	=69	=69	=69	=69	=69	=69	=69	=69	=69	=69	=69	=69	=69	=69	=69	=69
.	.	.	.	.	.	8qqcc/	.	.	.	.	.	.	.	.	.	.	.
4.D/_>	.	8d\L	.	32a\LLL]	.	8.b\L	.	.	.	.	.	.	.	.	.	4.ryy	4.ryy
.	.	.	.	32dd\	.	.	.	.	.	.	.	.	.	.	.	.	.
.	.	.	.	32b\	.	.	.	.	.	.	.	.	.	.	.	.	.
.	.	.	.	32f#X\JJJ	.	.	.	.	.	.	.	.	.	.	.	.	.
.	.	8e\	.	[4g/	.	.	.	.	.	.	.	.	.	.	.	.	.
.	.	.	.	.	.	16ee\L	.	.	.	.	.	.	.	.	.	.	.
.	.	8d\J	.	.	.	16ff#X\	.	.	.	.	.	.	.	.	.	.	.
.	.	.	.	.	.	16gg\JJ	.	.	.	.	.	.	.	.	.	.	.
!	!	!	!	!LO:LB:g=original	!	!	!	!	!	!	!	!	!	!	!	!	!
=70	=70	=70	=70	=70	=70	=70	=70	=70	=70	=70	=70	=70	=70	=70	=70	=70	=70
.	.	.	.	.	.	8qqb/	.	.	.	.	.	.	.	.	.	.	.
!	!	!	!	!LO:TX:a:t=g:mod=	!	!	!	!	!	!	!	!	!	!	!	!	!
4.D/]	.	8c#X\L	.	32g\LLL]	.	8.a\L	.	1.r	.	1.r	.	1.r	.	1.r	.	4.ryy	4.ryy
!	!	!	!	!LO:TX:a:t=c:mod=	!	!	!	!	!	!	!	!	!	!	!	!	!
.	.	.	.	32cc\	.	.	.	.	.	.	.	.	.	.	.	.	.
!	!	!	!	!LO:TX:a:t=a:mod=	!	!	!	!	!	!	!	!	!	!	!	!	!
.	.	.	.	32a\	.	.	.	.	.	.	.	.	.	.	.	.	.
!	!	!	!	!LO:TX:a:t=e:mod=	!	!	!	!	!	!	!	!	!	!	!	!	!
.	.	.	.	32e\JJJ	.	.	.	.	.	.	.	.	.	.	.	.	.
.	.	8d\	.	4f#Xt/	.	.	.	.	.	.	.	.	.	.	.	.	.
.	.	.	.	.	.	16dd\L	.	.	.	.	.	.	.	.	.	.	.
.	.	8cn\J	.	.	.	16ee\	.	.	.	.	.	.	.	.	.	.	.
.	.	.	.	.	.	16ff#X\JJ	.	.	.	.	.	.	.	.	.	.	.
=71	=71	=71	=71	=71	=71	=71	=71	=71	=71	=71	=71	=71	=71	=71	=71	=71	=71
8.G\L	5	8.B\L	.	8.b/L	.	8gg\	.	.	.	.	.	.	.	.	.	4.ryy	4.ryy
.	6	.	.	.	.	[4ee\	.	.	.	.	.	.	.	.	.	.	.
16A\L	.	16c\L	.	16b/L	.	.	.	.	.	.	.	.	.	.	.	.	.
16B\	.	16d\	.	16a/	.	.	.	.	.	.	.	.	.	.	.	.	.
16c\JJ	.	16e\JJ	.	16g/JJ	.	.	.	.	.	.	.	.	.	.	.	.	.
=72	=72	=72	=72	=72	=72	=72	=72	=72	=72	=72	=72	=72	=72	=72	=72	=72	=72
8.F#X\L	7	8.A\L	.	8.a/L	.	8ee\]	.	.	.	.	.	.	.	.	.	4.ryy	4.ryy
.	6	.	.	.	.	[4dd\	.	.	.	.	.	.	.	.	.	.	.
16G\L	.	16B\L	.	16a/L	.	.	.	.	.	.	.	.	.	.	.	.	.
16A\	.	16c\	.	16g/	.	.	.	.	.	.	.	.	.	.	.	.	.
16B\JJ	.	16d\JJ	.	16f#X/JJ	.	.	.	.	.	.	.	.	.	.	.	.	.
!LO:LB:g=original	!	!	!	!	!	!	!	!	!	!	!	!	!	!	!	!	!
=73	=73	=73	=73	=73	=73	=73	=73	=73	=73	=73	=73	=73	=73	=73	=73	=73	=73
8.E\L	7	8.G\L	.	8.g/L	.	8dd\]	.	.	.	.	.	.	.	.	.	4.ryy	4.ryy
.	6	.	.	.	.	[4cc\	.	.	.	.	.	.	.	.	.	.	.
16F#X\L	.	16A\L	.	16g/L	.	.	.	.	.	.	.	.	.	.	.	.	.
16G\	.	16B\	.	16f#X/	.	.	.	.	.	.	.	.	.	.	.	.	.
16A\JJ	.	16c\JJ	.	16e/JJ	.	.	.	.	.	.	.	.	.	.	.	.	.
=74	=74	=74	=74	=74	=74	=74	=74	=74	=74	=74	=74	=74	=74	=74	=74	=74	=74
4.D/	7 #	4.d\	.	8f#X/L	.	8cc\]	.	1.r	.	1.r	.	1.r	.	1.r	.	4.ryy	4.ryy
.	6 4	.	.	8g/	.	[4b/	.	.	.	.	.	.	.	.	.	.	.
.	6 #	.	.	8f#/J	.	.	.	.	.	.	.	.	.	.	.	.	.
=75	=75	=75	=75	=75	=75	=75	=75	=75	=75	=75	=75	=75	=75	=75	=75	=75	=75
4.C/	7	4e\	.	8g/	.	8b/L]	.	.	.	.	.	.	.	.	.	4.ryy	4.ryy
.	6	.	.	[4ee\	.	8a/	.	.	.	.	.	.	.	.	.	.	.
.	5	8cc\	.	.	.	8g/J	.	.	.	.	.	.	.	.	.	.	.
=76	=76	=76	=76	=76	=76	=76	=76	=76	=76	=76	=76	=76	=76	=76	=76	=76	=76
4D\	9	4a\	.	8ee\L]	.	4f#X/	.	.	.	.	.	.	.	.	.	4.ryy	4.ryy
.	8 #	.	.	8dd\	.	.	.	.	.	.	.	.	.	.	.	.	.
8F#X\	6 5	8a\	.	8cc\J	.	8dd\	.	.	.	.	.	.	.	.	.	.	.
=77	=77	=77	=77	=77	=77	=77	=77	=77	=77	=77	=77	=77	=77	=77	=77	=77	=77
16G\LL	.	8g\L	.	16b/LL	.	16dd\LL	.	.	.	.	.	.	.	.	.	4.ryy	4.ryy
16c\JJ	.	.	.	16g/JJ	.	16ee\JJ	.	.	.	.	.	.	.	.	.	.	.
8d\L	#	8d\	.	4f#Xt/	.	4aT/	.	.	.	.	.	.	.	.	.	.	.
8D\J	.	8d\J	.	.	.	.	.	.	.	.	.	.	.	.	.	.	.
!	!	!	!	!	!	!LO:LB:g=original	!	!	!	!	!	!	!	!	!	!	!
=78	=78	=78	=78	=78	=78	=78	=78	=78	=78	=78	=78	=78	=78	=78	=78	=78	=78
16G/LL	.	8d\	.	8g/	.	8g/	.	2.r	.	2.r	.	4.r	.	8g/	E-	4.ryy	4.ryy
*clefC2	*	*	*	*	*	*	*	*	*	*	*	*	*	*	*	*	*
*mclefG2	*	*	*	*	*	*	*	*	*	*	*	*	*	*	*	*	*
!LO:TX:b:t=tutti.:mod=tutti	!	!	!	!	!	!	!	!	!	!	!	!	!	!	!	!	!
16e/JJ	.	.	.	.	.	.	.	.	.	.	.	.	.	.	.	.	.
8f\L	.	8r	.	8r	.	8r	.	.	.	.	.	.	.	8a\	-su-	.	.
8g\J	.	8r	.	8r	.	8r	.	.	.	.	.	.	.	8b\	-ri-	.	.
=79	=79	=79	=79	=79	=79	=79	=79	=79	=79	=79	=79	=79	=79	=79	=79	=79	=79
*^	*	*	*	*	*	*	*	*	*	*	*	*	*	*	*	*	*
!LO:MO:mod=*null:null	!	!	!	!	!	!	!	!	!	!	!	!	!	!	!	!	!	!
*clefC3	*	*	*	*	*	*	*	*	*	*	*	*	*	*	*	*	*	*
!	!	!	!LO:TX:a:t=6:mod=	!	!	!	!	!	!	!	!	!	!	!	!	!	!	!
4cc/	8c\L	.	1.r	.	1.r	.	1.r	.	.	.	.	.	8c/	E-	4cc\	-en-	4.ryy	4.ryy
.	8e\	.	.	.	.	.	.	.	.	.	.	.	8e\	-su-	.	.	.	.
8cc/	8f\J	.	.	.	.	.	.	.	.	.	.	.	8f\	-ri-	8cc\	-tes	.	.
*v	*v	*	*	*	*	*	*	*	*	*	*	*	*	*	*	*	*	*
=80	=80	=80	=80	=80	=80	=80	=80	=80	=80	=80	=80	=80	=80	=80	=80	=80	=80
!LO:MO:null:mod=*clefF4	!	!	!	!	!	!	!	!	!	!	!	!	!	!	!	!	!
*clefC4	*	*	*	*	*	*	*	*	*	*	*	*	*	*	*	*	*
8G/L	.	.	.	.	.	.	.	4.r	.	8G/	E-	4g\	-en-	8b\	e-	4.ryy	4.ryy
8A/	6	.	.	.	.	.	.	.	.	8A/	-su-	.	.	8cc\	-su-	.	.
8B/J	.	.	.	.	.	.	.	.	.	8B/	-ri-	8g\	-tes	8dd\	-ri-	.	.
=81	=81	=81	=81	=81	=81	=81	=81	=81	=81	=81	=81	=81	=81	=81	=81	=81	=81
!LO:MO:mod=*null:null	!	!	!	!	!	!	!	!	!	!	!	!	!	!	!	!	!
*clefF4	*	*	*	*	*	*	*	*	*	*	*	*	*	*	*	*	*
8C\L	.	.	.	.	.	.	.	8C/	E-	[4.c\	-en-	8e\	E-	[4.ee\	-en-	4.ryy	4.ryy
8E\	6	.	.	.	.	.	.	8E\	-su-	.	.	8g\	-su-	.	.	.	.
8F\J	.	.	.	.	.	.	.	8F\	-ri-	.	.	8a\	-ri-	.	.	.	.
=82	=82	=82	=82	=82	=82	=82	=82	=82	=82	=82	=82	=82	=82	=82	=82	=82	=82
4G\	6 4	.	.	.	.	.	.	4G\	-en-	8c\L]	.	4g\	-en-	8ee\L]	.	4.ryy	4.ryy
.	.	.	.	.	.	.	.	.	.	16B\L	.	.	.	16dd\L	.	.	.
.	.	.	.	.	.	.	.	.	.	16A\JJ	.	.	.	16cc\JJ	.	.	.
8G\	5 3	.	.	.	.	.	.	8G\	-tes	8B\	-tes	8g\	-tes	8dd\	-tes	.	.
!LO:LB:g=original	!	!	!	!	!	!	!	!	!	!	!	!	!	!	!	!	!
=83	=83	=83	=83	=83	=83	=83	=83	=83	=83	=83	=83	=83	=83	=83	=83	=83	=83
8A\L	6	2.r	.	2.r	.	2.r	.	8A\	im-	8A/	im-	8cc\	im-	8ff\	im-	4.ryy	4.ryy
8G\	6	.	.	.	.	.	.	8G\	-ple-	8B\	-ple-	8b\	-ple-	8ee\	-le-	.	.
8F\J	6	.	.	.	.	.	.	8F\	-vit	8d\	-vit	8a\	-vit	8dd\	-vit	.	.
!	!	!	!	!	!	!	!	!	!	!	!	!LO:LB:g=original	!	!	!	!	!
=84	=84	=84	=84	=84	=84	=84	=84	=84	=84	=84	=84	=84	=84	=84	=84	=84	=84
8E\L	6	.	.	.	.	.	.	(8E\L	bo-	4G/	bo-	(8g\L	bo-	(8cc\L	bo-	4.ryy	4.ryy
8D\	6	.	.	.	.	.	.	8D\J)	.	.	.	8f\J)	.	8b\J)	.	.	.
8C\J	5	.	.	.	.	.	.	8C/	-nis	8G/	-nis	8e\	-nis	8cc\	-nis	.	.
!	!	!	!	!	!	!	!	!	!	!LO:LB:g=original	!	!	!	!	!	!	!
=85	=85	=85	=85	=85	=85	=85	=85	=85	=85	=85	=85	=85	=85	=85	=85	=85	=85
*clefC3	*	*	*	*	*	*	*	*	*	*	*	*	*	*	*	*	*
*mclefG2	*	*	*	*	*	*	*	*	*	*	*	*	*	*	*	*	*
!LO:TX:b:t=solo.:mod=solo	!	!	!	!	!	!	!	!	!	!	!	!	!	!	!	!	!
8a\L	6	(8a\L	.	(8cc\L	.	(8ff\L	.	2.r	.	2.r	.	2.r	.	2.r	.	4.ryy	4.ryy
!	!	!LO:SIC:o=8g\)	!	!	!	!	!	!	!	!	!	!	!	!	!	!	!
8g\	6	8g	.	8b\	.	8ee\	.	.	.	.	.	.	.	.	.	.	.
!	!	!LO:SIC:o=8f\J	!	!	!	!	!	!	!	!	!	!	!	!	!	!	!
8f\J	6	8fJ)	.	8a\J)	.	8dd\J)	.	.	.	.	.	.	.	.	.	.	.
=86	=86	=86	=86	=86	=86	=86	=86	=86	=86	=86	=86	=86	=86	=86	=86	=86	=86
8e\L	6	(8e\L	.	(8g/L	.	(8gg\L	.	.	.	.	.	.	.	.	.	4.ryy	4.ryy
!	!	!LO:SIC:o=8d\)	!	!	!	!	!	!	!	!	!	!	!	!	!	!	!
8d\	6	8d	.	8f/	.	8b\	.	.	.	.	.	.	.	.	.	.	.
!	!	!LO:SIC:o=8c\J	!	!	!	!	!	!	!	!	!	!	!	!	!	!	!
8c\J	5	8cJ)	.	8e/J)	.	8cc\J)	.	.	.	.	.	.	.	.	.	.	.
=87	=87	=87	=87	=87	=87	=87	=87	=87	=87	=87	=87	=87	=87	=87	=87	=87	=87
*clefF4	*	*	*	*	*	*	*	*	*	*	*	*	*	*	*ij	*	*
!LO:TX:b:t=Tutti.:mod=tutti	!	!	!	!	!	!	!	!	!	!	!	!	!	!	!	!	!
8F\L	6	4.r	.	2.r	.	2.r	.	8F\	im-	8F/	im-	8a\	im-	8dd\	im-	4.ryy	4.ryy
8E\	6	.	.	.	.	.	.	8E\	-ple-	8G/	-ple-	8g\	-ple-	8cc\	-ple-	.	.
8D\J	6	.	.	.	.	.	.	8D\	-vit	8B\	-vit	8f\	-vit	8b\	-vit	.	.
=88	=88	=88	=88	=88	=88	=88	=88	=88	=88	=88	=88	=88	=88	=88	=88	=88	=88
8C/L	6	4.r	.	.	.	.	.	(8C/L	bo-	4E/	bo-	(8e\L	bo-	(8a\L	bo-	4.ryy	4.ryy
8BB/	6\	.	.	.	.	.	.	8BB/J)	.	.	.	8d\J)	.	8g#X\J)	.	.	.
8AA/J	5	.	.	.	.	.	.	8AA/	-nis	8E/	-nis	8c\	-nis	8a\	-nis	.	.
*	*	*	*	*	*	*	*	*	*	*	*	*	*	*	*Xij	*	*
!	!	!	!	!	!	!	!	!LO:LB:g=original	!	!	!	!	!	!LO:LB:g=original	!	!	!
=89	=89	=89	=89	=89	=89	=89	=89	=89	=89	=89	=89	=89	=89	=89	=89	=89	=89
*clefC3	*	*	*	*	*	*	*	*	*	*	*	*	*	*	*	*	*
*mclefG2	*	*	*	*	*	*	*	*	*	*	*	*	*	*	*	*	*
!LO:TX:b:t=solo.:mod=solo	!	!	!	!	!	!	!	!	!	!	!	!	!	!	!	!	!
8f\L	6	(8f\L	.	(8a/L	.	(8dd\L	.	2.r	.	2.r	.	2.r	.	2.r	.	4.ryy	4.ryy
!	!	!LO:SIC:o=8e\)	!	!LO:SIC:o=8g/)	!	!	!	!	!	!	!	!	!	!	!	!	!
8e\	6	8e	.	8g	.	8cc\	.	.	.	.	.	.	.	.	.	.	.
!	!	!LO:SIC:o=8d\J	!	!LO:SIC:o=8f/J	!	!	!	!	!	!	!	!	!	!	!	!	!
8d\J	6	8dJ)	.	8fJ)	.	8b\J)	.	.	.	.	.	.	.	.	.	.	.
!	!	!	!	!LO:LB:g=original	!	!	!	!	!	!	!	!	!	!	!	!	!
=90	=90	=90	=90	=90	=90	=90	=90	=90	=90	=90	=90	=90	=90	=90	=90	=90	=90
8c/L	6	(8c/L	.	(8e/L	.	(8ee\L	.	.	.	.	.	.	.	.	.	4.ryy	4.ryy
!	!	!LO:SIC:o=8B/)	!	!LO:SIC:o=8d/)	!	!	!	!	!	!	!	!	!	!	!	!	!
8B/	6\	8B	.	8d	.	8g#X\)	.	.	.	.	.	.	.	.	.	.	.
!	!	!LO:SIC:o=8A/J	!	!LO:SIC:o=8c/J	!	!	!	!	!	!	!	!	!	!	!	!	!
8A/J	5	8AJ)	.	8cJ)	.	8a\J	.	.	.	.	.	.	.	.	.	.	.
=91	=91	=91	=91	=91	=91	=91	=91	=91	=91	=91	=91	=91	=91	=91	=91	=91	=91
*clefF4	*	*	*	*	*	*	*	*	*	*	*	*	*	*	*	*	*
!LO:TX:b:t=Tutti.:mod=tutti	!	!LO:TX:a:t=4.:mod=	!	!LO:TX:a:t=4.:mod=	!	!	!	!	!	!	!	!	!	!	!	!	!
8D/L	-6	1.r	.	1.r	.	1.r	.	8D/	im-	8D/	im-	8f\	im-	8b-X\	im-	4.ryy	4.ryy
8C/	6	.	.	.	.	.	.	8C/	-ple-	8E/	-ple-	8e\	-ple-	8a\	-ple-	.	.
8BB-X/J	6	.	.	.	.	.	.	8BB-X/	-vit	8G/	-vit	8d\	-vit	8g\	-vit	.	.
=92	=92	=92	=92	=92	=92	=92	=92	=92	=92	=92	=92	=92	=92	=92	=92	=92	=92
8AA/L	6	.	.	.	.	.	.	(8AA/L	bo-	4c\	bo-	(8c\L	bo-	(8f/L	bo-	4.ryy	4.ryy
8GG/	6 -	.	.	.	.	.	.	8GG/J)	.	.	.	8B-X\J)	.	8e/J)	.	.	.
8FF/J	.	.	.	.	.	.	.	8FF/	-nis	8C/	-nis	8A\	-nis	8f/	-nis	.	.
=93	=93	=93	=93	=93	=93	=93	=93	=93	=93	=93	=93	=93	=93	=93	=93	=93	=93
8C/	.	.	.	.	.	.	.	(<8C/	bo-	8c\	bo-	8e\	bo-	8g/	bo-	4.ryy	4.ryy
4F\	6 n4r 3	.	.	.	.	.	.	4FT\)	.	4Bnt\	.	[4f\	.	4aT\	.	.	.
!LO:LB:g=original	!	!	!	!	!	!	!	!	!	!	!	!	!	!	!	!	!
=94	=94	=94	=94	=94	=94	=94	=94	=94	=94	=94	=94	=94	=94	=94	=94	=94	=94
4.C/	5 4	.	.	.	.	.	.	4.C/	-nis	4.c\	-nis	8f\L]	.	4.g/	-nis	4.ryy	4.ryy
.	.	.	.	.	.	.	.	.	.	.	.	16e\L	.	.	.	.	.
.	3	.	.	.	.	.	.	.	.	.	.	16d\JJ	.	.	.	.	.
.	.	.	.	.	.	.	.	.	.	.	.	8e\	-nis	.	.	.	.
=95	=95	=95	=95	=95	=95	=95	=95	=95	=95	=95	=95	=95	=95	=95	=95	=95	=95
!	!	!	!	!	!	!	!	!	!LO:MO:mod=Et	!	!LO:MO:mod=Et	!	!LO:MO:mod=Et	!	!	!	!
16A\LL	7 #	16e\LL	.	16cc#X\LL	.	16gg\LL	.	4.A\	et	4.e\	et	4.g\	et	4.cc#X\	Et	4.ryy	4.ryy
16A\	.	16e\	.	16cc#\	.	16gg\	.	.	.	.	.	.	.	.	.	.	.
16A\	.	16e\	.	16cc#\	.	16gg\	.	.	.	.	.	.	.	.	.	.	.
16A\	.	16e\	.	16cc#\	.	16gg\	.	.	.	.	.	.	.	.	.	.	.
16A\	.	16e\	.	16cc#\	.	16gg\	.	.	.	.	.	.	.	.	.	.	.
16A\JJ	.	16e\JJ	.	16cc#\JJ	.	16gg\JJ	.	.	.	.	.	.	.	.	.	.	.
=96	=96	=96	=96	=96	=96	=96	=96	=96	=96	=96	=96	=96	=96	=96	=96	=96	=96
16A\LL	6 4	16d\LL	.	16dd\LL	.	16ff\LL	.	8.A\	di-	8.d\	di-	8.f\	di-	8.dd\	di-	4.ryy	4.ryy
16A\	.	16d\	.	16dd\	.	16ff\	.	.	.	.	.	.	.	.	.	.	.
16A\	.	16d\	.	16dd\	.	16ff\	.	.	.	.	.	.	.	.	.	.	.
16A\	.	16d\	.	16dd\	.	16ff\	.	16A\	-vi-	16d\	-vi-	16f\	-vi-	16dd\	-vi-	.	.
16A\	4 n3r	16d\	.	16ccn\	.	16ff\	.	8A\	-tes	8d\	-tes	8f\	-tes	8ccn\	-tes	.	.
16A\JJ	.	16d\JJ	.	16cc\JJ	.	16ff\JJ	.	.	.	.	.	.	.	.	.	.	.
!	!	!LO:LB:g=original	!	!	!	!	!	!	!	!	!	!LO:LB:g=original	!	!	!	!	!
=97	=97	=97	=97	=97	=97	=97	=97	=97	=97	=97	=97	=97	=97	=97	=97	=97	=97
16G\LL	7	16d\LL	.	16b/LL	.	16ff\LL	.	4.G\	et	4.d\	et	4.f\	et	4.b\	et	4.ryy	4.ryy
16G\	.	16d\	.	16b/	.	16ff\	.	.	.	.	.	.	.	.	.	.	.
16G\	.	16d\	.	16b/	.	16ff\	.	.	.	.	.	.	.	.	.	.	.
16G\	.	16d\	.	16b/	.	16ff\	.	.	.	.	.	.	.	.	.	.	.
16G\	.	16d\	.	16b/	.	16ff\	.	.	.	.	.	.	.	.	.	.	.
16G\JJ	.	16d\JJ	.	16b/JJ	.	16ff\JJ	.	.	.	.	.	.	.	.	.	.	.
!	!	!	!	!	!	!	!	!	!	!LO:LB:g=original	!	!	!	!	!	!	!
=98	=98	=98	=98	=98	=98	=98	=98	=98	=98	=98	=98	=98	=98	=98	=98	=98	=98
16G\LL	6 4	16c/LL	.	16cc\LL	.	16ee\LL	.	8.G\	di-	8.c\	di-	8.e\	di-	8.cc\	di-	4.ryy	4.ryy
16G\	.	16c/	.	16cc\	.	16ee\	.	.	.	.	.	.	.	.	.	.	.
16G\	.	16c/	.	16cc\	.	16ee\	.	.	.	.	.	.	.	.	.	.	.
16G\	.	16c/	.	16cc\	.	16ee\	.	16G\	-vi-	16c\	-vi-	16e\	-vi-	16cc\	-vi-	.	.
16G\	6 4 3-	16c/	.	16b-X\	.	16ee\	.	8G\	-tes	8c\	-tes	8e\	-tes	8b-X\	-tes	.	.
16G\JJ	.	16c/JJ	.	16b-\JJ	.	16ee\JJ	.	.	.	.	.	.	.	.	.	.	.
=99	=99	=99	=99	=99	=99	=99	=99	=99	=99	=99	=99	=99	=99	=99	=99	=99	=99
16F\LL	-	16c/LL	.	16a-X/LL	.	16ff\LL	.	4.F\	di-	4.c\	di-	4.f\	di-	4.a-X\	di-	4.ryy	4.ryy
16F\	.	16c/	.	16a-/	.	16ff\	.	.	.	.	.	.	.	.	.	.	.
16F\	.	16c/	.	16a-/	.	16ff\	.	.	.	.	.	.	.	.	.	.	.
16F\	.	16c/	.	16a-/	.	16ff\	.	.	.	.	.	.	.	.	.	.	.
16F\	.	16c/	.	16a-/	.	16ff\	.	.	.	.	.	.	.	.	.	.	.
16F\JJ	.	16c/JJ	.	16a-/JJ	.	16ff\JJ	.	.	.	.	.	.	.	.	.	.	.
!	!	!	!	!	!	!LO:LB:g=original	!	!LO:LB:g=original	!	!	!	!	!	!	!	!	!
=100	=100	=100	=100	=100	=100	=100	=100	=100	=100	=100	=100	=100	=100	=100	=100	=100	=100
!	!	!	!	!	!	!	!	!	!	!	!	!	!	!LO:SIC:v:o=4a\	!	!	!
16D-X/LL	-5	16d-X\LL	.	16a-X/LL	.	16ff\LL	.	4D-X/	-mi-	4d-X\	-mi-	4f\	-mi-	4a-\	-mi-	4.ryy	4.ryy
16D-/	.	16d-\	.	16a-/	.	16ff\	.	.	.	.	.	.	.	.	.	.	.
16D-/	.	16d-\	.	16a-/	.	16ff\	.	.	.	.	.	.	.	.	.	.	.
16D-/	.	16d-\	.	16a-/	.	16ff\	.	.	.	.	.	.	.	.	.	.	.
!	!	!	!	!	!	!	!	!	!	!	!	!	!	!LO:SIC:v:o=8a\	!	!	!
16D-/	.	16d-\	.	16a-/	.	16ff\	.	8D-/	-sit	8d-\	-sit	8f\	-sit	8a-\	-sit	.	.
16D-/JJ	.	16d-\JJ	.	16a-/JJ	.	16ff\JJ	.	.	.	.	.	.	.	.	.	.	.
=101	=101	=101	=101	=101	=101	=101	=101	=101	=101	=101	=101	=101	=101	=101	=101	=101	=101
!	!	!	!	!	!	!	!	!LO:TX:a:t=h:mod=	!	!	!	!	!	!LO:SIC:v:o=8a\	!	!	!
16BBn/LL	-7	16dn\LL	.	16a-X/LL	.	16ff\LL	.	8BBn/	in-	8dn\	in-	8f\	in-	8a-\	in-	4.ryy	4.ryy
16BB/	.	16d\	.	16a-/	.	16ff\	.	.	.	.	.	.	.	.	.	.	.
!	!	!	!	!	!	!	!	!	!	!	!	!	!	!LO:SIC:v:o=4a\	!	!	!
16BB/	.	16d\	.	16a-/	.	16ff\	.	4BB/	-a-	4d\	-a-	4f\	-a-	4a-\	-a-	.	.
16BB/	.	16d\	.	16a-/	.	16ff\	.	.	.	.	.	.	.	.	.	.	.
16BB/	.	16d\	.	16a-/	.	16ff\	.	.	.	.	.	.	.	.	.	.	.
16BB/JJ	.	16d\JJ	.	16a-/JJ	.	16ff\JJ	.	.	.	.	.	.	.	.	.	.	.
!LO:LB:g=original	!	!	!	!	!	!	!	!	!	!	!	!	!	!	!	!	!
=102	=102	=102	=102	=102	=102	=102	=102	=102	=102	=102	=102	=102	=102	=102	=102	=102	=102
16C/LL	n	16G/LL	.	16g/LL	.	16ee\LL	.	4.C/	-nes	4.G/	-nes	4.e\	-nes	4.g/	-nes	4.ryy	4.ryy
16C/	.	16G/	.	16g/	.	16ee\	.	.	.	.	.	.	.	.	.	.	.
16C/	.	16G/	.	16g/	.	16ee\	.	.	.	.	.	.	.	.	.	.	.
16C/	.	16G/	.	16g/	.	16ee\	.	.	.	.	.	.	.	.	.	.	.
16C/	.	16G/	.	16g/	.	16ee\	.	.	.	.	.	.	.	.	.	.	.
16C/JJ	.	16G/JJ	.	16g/JJ	.	16ee\JJ	.	.	.	.	.	.	.	.	.	.	.
!	!	!	!	!LO:LB:g=original	!	!	!	!	!	!	!	!	!	!LO:LB:g=original	!	!	!
=103	=103	=103	=103	=103	=103	=103	=103	=103	=103	=103	=103	=103	=103	=103	=103	=103	=103
!	!	!	!	!	!	!	!	!	!	!	!	!	!LO:MO:mod=et	!	!	!	!
16c\LL	-	16g\LL	.	16cc\LL	.	16ee-X\LL	.	4.c\	et	4.e-X\	et	4.g\	e[t]	4.cc\	et	4.ryy	4.ryy
16c\	.	16g\	.	16cc\	.	16ee-\	.	.	.	.	.	.	.	.	.	.	.
16c\	.	16g\	.	16cc\	.	16ee-\	.	.	.	.	.	.	.	.	.	.	.
16c\	.	16g\	.	16cc\	.	16ee-\	.	.	.	.	.	.	.	.	.	.	.
16c\	.	16g\	.	16cc\	.	16ee-\	.	.	.	.	.	.	.	.	.	.	.
16c\JJ	.	16g\JJ	.	16cc\JJ	.	16ee-\JJ	.	.	.	.	.	.	.	.	.	.	.
=104	=104	=104	=104	=104	=104	=104	=104	=104	=104	=104	=104	=104	=104	=104	=104	=104	=104
!	!	!	!	!	!	!LO:SIC:v:o=16ee\LL	!	!	!	!LO:SIC:v:o=8.e\	!	!	!	!	!	!	!
16A-X\LL	-5	16a-X\LL	.	16cc\LL	.	16ee-\LL	.	8.A-X\	di-	8.e-\	di-	8.a-X\	di-	8.cc\	di-	4.ryy	4.ryy
!	!	!	!	!	!	!LO:SIC:v:o=16ee\	!	!	!	!	!	!	!	!	!	!	!
16A-\	.	16a-\	.	16cc\	.	16ee-\	.	.	.	.	.	.	.	.	.	.	.
!	!	!	!	!	!	!LO:SIC:v:o=16ee\	!	!	!	!	!	!	!	!	!	!	!
16A-\	.	16a-\	.	16cc\	.	16ee-\	.	.	.	.	.	.	.	.	.	.	.
!	!	!	!	!	!	!LO:SIC:v:o=16ee\	!	!	!	!LO:SIC:v:o=16e\	!	!	!	!	!	!	!
16A-\	.	16a-\	.	16cc\	.	16ee-\	.	16A-\	-vi-	16e-\	-vi-	16a-\	-vi-	16cc\	-vi-	.	.
!	!	!	!	!	!	!LO:SIC:v:o=16ee\	!	!	!	!LO:SIC:v:o=8e\	!	!	!	!	!	!	!
16A-\	.	16a-\	.	16cc\	.	16ee-\	.	8A-\	-tes	8e-\	-tes	8a-\	-tes	8cc\	-tes	.	.
!	!	!	!	!	!	!LO:SIC:v:o=16ee\JJ	!	!	!	!	!	!	!	!	!	!	!
16A-\JJ	.	16a-\JJ	.	16cc\JJ	.	16ee-\JJ	.	.	.	.	.	.	.	.	.	.	.
=105	=105	=105	=105	=105	=105	=105	=105	=105	=105	=105	=105	=105	=105	=105	=105	=105	=105
!	!	!	!	!	!	!LO:SIC:v:o=16ee\LL	!	!	!	!LO:SIC:v:o=4.e\	!	!	!	!	!	!	!
16F#X\LL	-7r	16an\LL	.	16cc\LL	.	16ee-\LL	.	4.F#X\	di-	4.e-\	di-	4.an\	di-	4.cc\	di-	4.ryy	4.ryy
!	!	!	!	!	!	!LO:SIC:v:o=16ee\	!	!	!	!	!	!	!	!	!	!	!
16F#\	.	16a\	.	16cc\	.	16ee-\	.	.	.	.	.	.	.	.	.	.	.
!	!	!	!	!	!	!LO:SIC:v:o=16ee\	!	!	!	!	!	!	!	!	!	!	!
16F#\	.	16a\	.	16cc\	.	16ee-\	.	.	.	.	.	.	.	.	.	.	.
!	!	!	!	!	!	!LO:SIC:v:o=16ee\	!	!	!	!	!	!	!	!	!	!	!
16F#\	.	16a\	.	16cc\	.	16ee-\	.	.	.	.	.	.	.	.	.	.	.
!	!	!	!	!	!	!LO:SIC:v:o=16ee\	!	!	!	!	!	!	!	!	!	!	!
16F#\	.	16a\	.	16cc\	.	16ee-\	.	.	.	.	.	.	.	.	.	.	.
!	!	!	!	!	!	!LO:SIC:v:o=16ee\JJ	!	!	!	!	!	!	!	!	!	!	!
16F#\JJ	.	16a\JJ	.	16cc\JJ	.	16ee-\JJ	.	.	.	.	.	.	.	.	.	.	.
=106	=106	=106	=106	=106	=106	=106	=106	=106	=106	=106	=106	=106	=106	=106	=106	=106	=106
16G\LL	.	16g\LL	.	16b\LL	.	16dd\LL	.	4G\	-mi-	4d\	-mi-	4g\	-mi-	4b\	-mi-	4.ryy	4.ryy
16G\	.	16g\	.	16b\	.	16dd\	.	.	.	.	.	.	.	.	.	.	.
16G\	.	16g\	.	16b\	.	16dd\	.	.	.	.	.	.	.	.	.	.	.
16G\	.	16g\	.	16b\	.	16dd\	.	.	.	.	.	.	.	.	.	.	.
16c\	n	16g\	.	16cc\	.	16een\	.	8c\	-sit	8en\	-sit	8g\	-sit	8cc\	-sit	.	.
16c\JJ	.	16g\JJ	.	16cc\JJ	.	16ee\JJ	.	.	.	.	.	.	.	.	.	.	.
=107	=107	=107	=107	=107	=107	=107	=107	=107	=107	=107	=107	=107	=107	=107	=107	=107	=107
!LO:TX:t=P:problem=mixed beam	!	!	!	!	!	!	!	!	!	!	!	!	!	!	!	!	!
16F\LL	.	16a\LL	.	16cc\LL	.	16ff\LL	.	8F\	in-	4f\	in-	8a\	in-	8cc\	in-	4.ryy	4.ryy
16F\	.	16a\	.	16cc\	.	16ff\	.	.	.	.	.	.	.	.	.	.	.
16G\	4	16g\	.	16cc\	.	16dd\	.	4G\	-a-	.	.	4g\	-a-	(8cc\L	-a-	.	.
16G\	.	16g\	.	16cc\	.	16dd\	.	.	.	.	.	.	.	.	.	.	.
16GG/	3	16g\	.	16b\	.	16dd\	.	.	.	8dT\	-a-	.	.	8bt\J)	.	.	.
16GG/JJ	.	16g\JJ	.	16b\JJ	.	16dd\JJ	.	.	.	.	.	.	.	.	.	.	.
=108	=108	=108	=108	=108	=108	=108	=108	=108	=108	=108	=108	=108	=108	=108	=108	=108	=108
4C/	.	8g\	.	4cc\	.	16ee\LL	.	4C/	-nes	4e\	-nes	4g\	-nes.	4cc\	-nes.	4.ryy	4.ryy
.	.	.	.	.	.	16g\JJ	.	.	.	.	.	.	.	.	.	.	.
.	.	16r	.	.	.	[4cc\	.	.	.	.	.	.	.	.	.	.	.
.	.	16g\LL	.	.	.	.	.	.	.	.	.	.	.	.	.	.	.
!LO:TX:b:t=solo.:mod=solo	!	!	!	!	!	!	!	!	!	!	!	!	!	!	!	!	!
8C/	.	16e\	.	8r	.	.	.	8r	.	8r	.	8r	.	8r	.	.	.
.	.	16c\JJ	.	.	.	.	.	.	.	.	.	.	.	.	.	.	.
!	!	!LO:LB:g=original	!	!	!	!	!	!	!	!	!	!	!	!	!	!	!
=109	=109	=109	=109	=109	=109	=109	=109	=109	=109	=109	=109	=109	=109	=109	=109	=109	=109
4D/	7	8r	.	8f/	.	16cc\LL]	.	1.r	.	1.r	.	4.r	.	1.r	.	4.ryy	4.ryy
.	.	.	.	.	.	32dd\L	.	.	.	.	.	.	.	.	.	.	.
.	.	.	.	.	.	32cc\JJJ	.	.	.	.	.	.	.	.	.	.	.
.	6	8f\L	.	[4dd\	.	32b/LLL	.	.	.	.	.	.	.	.	.	.	.
.	.	.	.	.	.	32cc/	.	.	.	.	.	.	.	.	.	.	.
.	.	.	.	.	.	32b/	.	.	.	.	.	.	.	.	.	.	.
.	.	.	.	.	.	32a/JJJ	.	.	.	.	.	.	.	.	.	.	.
8D/	.	8d\J	.	.	.	32g/LLL	.	.	.	.	.	.	.	.	.	.	.
.	.	.	.	.	.	32a/	.	.	.	.	.	.	.	.	.	.	.
.	.	.	.	.	.	32g/	.	.	.	.	.	.	.	.	.	.	.
.	.	.	.	.	.	32f/JJJ	.	.	.	.	.	.	.	.	.	.	.
!LO:LB:g=original	!	!	!	!	!	!LO:LB:g=original	!	!	!	!	!	!LO:LB:g=original	!	!	!	!	!
=110	=110	=110	=110	=110	=110	=110	=110	=110	=110	=110	=110	=110	=110	=110	=110	=110	=110
4E\	7	8r	.	16dd\LL]	.	8g/	.	.	.	.	.	1.r	.	.	.	4.ryy	4.ryy
.	.	.	.	32ee\L	.	.	.	.	.	.	.	.	.	.	.	.	.
.	.	.	.	32dd\JJJ	.	.	.	.	.	.	.	.	.	.	.	.	.
.	6	8g\L	.	32cc\LLL	.	[4ee\	.	.	.	.	.	.	.	.	.	.	.
.	.	.	.	32dd\	.	.	.	.	.	.	.	.	.	.	.	.	.
.	.	.	.	32cc\	.	.	.	.	.	.	.	.	.	.	.	.	.
.	.	.	.	32b\JJJ	.	.	.	.	.	.	.	.	.	.	.	.	.
8E\	.	8e\J	.	32a/LLL	.	.	.	.	.	.	.	.	.	.	.	.	.
.	.	.	.	32b/	.	.	.	.	.	.	.	.	.	.	.	.	.
.	.	.	.	32a/	.	.	.	.	.	.	.	.	.	.	.	.	.
.	.	.	.	32g/JJJ	.	.	.	.	.	.	.	.	.	.	.	.	.
=111	=111	=111	=111	=111	=111	=111	=111	=111	=111	=111	=111	=111	=111	=111	=111	=111	=111
4F\	7	8r	.	8a/	.	16ee\LL]	.	.	.	.	.	.	.	.	.	4.ryy	4.ryy
.	.	.	.	.	.	32ff\L	.	.	.	.	.	.	.	.	.	.	.
.	.	.	.	.	.	32ee\JJJ	.	.	.	.	.	.	.	.	.	.	.
.	6	8a\L	.	[4ff\	.	32dd\LLL	.	.	.	.	.	.	.	.	.	.	.
.	.	.	.	.	.	32ee\	.	.	.	.	.	.	.	.	.	.	.
.	.	.	.	.	.	32dd\	.	.	.	.	.	.	.	.	.	.	.
.	.	.	.	.	.	32cc\JJJ	.	.	.	.	.	.	.	.	.	.	.
8F\	.	8f\J	.	.	.	32b\LLL	.	.	.	.	.	.	.	.	.	.	.
.	.	.	.	.	.	32cc\	.	.	.	.	.	.	.	.	.	.	.
.	.	.	.	.	.	32b\	.	.	.	.	.	.	.	.	.	.	.
.	.	.	.	.	.	32a\JJJ	.	.	.	.	.	.	.	.	.	.	.
=112	=112	=112	=112	=112	=112	=112	=112	=112	=112	=112	=112	=112	=112	=112	=112	=112	=112
4G\	7	8r	.	16ff\LL]	.	8b\	.	.	.	.	.	.	.	.	.	4.ryy	4.ryy
.	.	.	.	32gg\L	.	.	.	.	.	.	.	.	.	.	.	.	.
.	.	.	.	32ff\JJJ	.	.	.	.	.	.	.	.	.	.	.	.	.
.	6	8b\L	.	32ee\LLL	.	[4gg\	.	.	.	.	.	.	.	.	.	.	.
.	.	.	.	32ff\	.	.	.	.	.	.	.	.	.	.	.	.	.
.	.	.	.	32ee\	.	.	.	.	.	.	.	.	.	.	.	.	.
.	.	.	.	32dd\JJJ	.	.	.	.	.	.	.	.	.	.	.	.	.
8G\	.	8g\J	.	32cc\LLL	.	.	.	.	.	.	.	.	.	.	.	.	.
.	.	.	.	32dd\	.	.	.	.	.	.	.	.	.	.	.	.	.
.	.	.	.	32cc\	.	.	.	.	.	.	.	.	.	.	.	.	.
.	.	.	.	32b\JJJ	.	.	.	.	.	.	.	.	.	.	.	.	.
=113	=113	=113	=113	=113	=113	=113	=113	=113	=113	=113	=113	=113	=113	=113	=113	=113	=113
4A\	7	8r	.	8a/	.	16gg\LL]	.	1.r	.	1.r	.	.	.	1.r	.	4.ryy	4.ryy
.	.	.	.	.	.	32aa\L	.	.	.	.	.	.	.	.	.	.	.
.	.	.	.	.	.	32gg\JJJ	.	.	.	.	.	.	.	.	.	.	.
.	6	(8cc\L	.	[4aa\	.	32ff\LLL	.	.	.	.	.	.	.	.	.	.	.
.	.	.	.	.	.	32gg\	.	.	.	.	.	.	.	.	.	.	.
.	.	.	.	.	.	32ff\	.	.	.	.	.	.	.	.	.	.	.
.	.	.	.	.	.	32ee\JJJ	.	.	.	.	.	.	.	.	.	.	.
8F\	6	8a\J)	.	.	.	32dd\LLL	.	.	.	.	.	.	.	.	.	.	.
.	.	.	.	.	.	32ee\	.	.	.	.	.	.	.	.	.	.	.
.	.	.	.	.	.	32dd\	.	.	.	.	.	.	.	.	.	.	.
.	.	.	.	.	.	32cc\JJJ	.	.	.	.	.	.	.	.	.	.	.
=114	=114	=114	=114	=114	=114	=114	=114	=114	=114	=114	=114	=114	=114	=114	=114	=114	=114
.	.	.	.	.	.	8qqcc/	.	.	.	.	.	.	.	.	.	.	.
4G\	9	4dd\	.	16aa\LL]	.	4b/	.	.	.	.	.	2.r	.	.	.	4.ryy	4.ryy
.	.	.	.	32bb\L	.	.	.	.	.	.	.	.	.	.	.	.	.
.	.	.	.	32aa\JJJ	.	.	.	.	.	.	.	.	.	.	.	.	.
.	8	.	.	32gg\LLL	.	.	.	.	.	.	.	.	.	.	.	.	.
.	.	.	.	32ff\	.	.	.	.	.	.	.	.	.	.	.	.	.
.	.	.	.	32ee\	.	.	.	.	.	.	.	.	.	.	.	.	.
.	.	.	.	32dd\JJJ	.	.	.	.	.	.	.	.	.	.	.	.	.
8E\	6	8g\	.	32cc\LLL	.	8cc\	.	.	.	.	.	.	.	.	.	.	.
.	.	.	.	32b\	.	.	.	.	.	.	.	.	.	.	.	.	.
.	.	.	.	32a\	.	.	.	.	.	.	.	.	.	.	.	.	.
.	.	.	.	32g\JJJ	.	.	.	.	.	.	.	.	.	.	.	.	.
!	!	!	!	!LO:LB:g=original	!	!	!	!	!	!	!	!	!	!	!	!	!
=115	=115	=115	=115	=115	=115	=115	=115	=115	=115	=115	=115	=115	=115	=115	=115	=115	=115
!LO:TX:t=P:problem=mixed beam	!	!	!	!	!	!	!	!	!	!	!	!	!	!	!	!	!
8F\L	6	16f\LL	.	(32a/KLL	.	(32ff\KLL	.	.	.	.	.	.	.	.	.	4.ryy	4.ryy
.	.	.	.	16.f/JJ)	.	16.dd\JJ)	.	.	.	.	.	.	.	.	.	.	.
.	.	16a\JJ	.	.	.	.	.	.	.	.	.	.	.	.	.	.	.
!	!	!LO:TX:t=P:problem=mixed beam	!	!	!	!	!	!	!	!	!	!	!	!	!	!	!
8G\	6 4	8g\L	.	(32g/KLL	.	(32ee\KLL	.	.	.	.	.	.	.	.	.	.	.
.	.	.	.	16.e/JJ)	.	16.cc\JJ)	.	.	.	.	.	.	.	.	.	.	.
8GG/J	7 3	8G/J	.	(32f/KLL	.	(32dd\KLL	.	.	.	.	.	.	.	.	.	.	.
.	.	.	.	16.d/JJ)	.	16.b\JJ)	.	.	.	.	.	.	.	.	.	.	.
=116	=116	=116	=116	=116	=116	=116	=116	=116	=116	=116	=116	=116	=116	=116	=116	=116	=116
.	.	.	.	8qqd/	.	8qqb/	.	.	.	.	.	.	.	.	.	.	.
4C/	.	4G/	.	4e/	.	4cc\	.	.	.	.	.	4.r	.	.	.	4.ryy	4.ryy
!	!	!	!	!LO:TX:b:i:t=Volti Subito.:mod=	!	!	!	!	!	!	!	!	!	!	!	!	!
8r	.	8r	.	8r	.	8r	.	.	.	.	.	.	.	.	.	.	.
==	==	==	==	==	==	==	==	==	==	==	==	==	==	==	==	==	==
*-	*-	*-	*-	*-	*-	*-	*-	*-	*-	*-	*-	*-	*-	*-	*-	*-	*-
!!!system-decoration: [(g1)][(g2)][(g3)]<s10>
!!!RDF**kern: > = above
!!!RDF**kern: < = below
!!!RDF**kern: | = vertical stroke
!!!filter-modern: sic -sq | shed -e "s/TX(.*):t=P:/tx$1:t=P:/LG" | shed -e "s/yy//" | shed -e "s/^custos:/Xcustos:/I" | shed -e "s/:rj/:RJ/L" | shed -k -e "s/LO:N:vis/LO:n:vis:/L" | shed -e "s/^(\d+[\/\\]right)/$1yy/I;s/^(\d+[\/\\]left)/$1yy/I" | shed -k -e "s/([^a-gA-Gn#X-])[<>]/$1/g" | shed -e "s/(LO:DY.*):t=(.*$)/$1:T=$2/L; s/LO:DY(.*)(:a:)(.*)/LO:dy:$1$2$3/L; s/LO:DY(.*)(:b:)(.*)/LO:dy:$1$2$3/L; s/LO:DY(.*)(:[ab])$/LO:dy:$1$2/L; s/LO:DY(.*)(:rj:)(.*)/LO:dy:$1$2$3/L" | shed -e "s/-//B" | modori -m | tie -s| autostem -r | humtr -p
!!!ENC: Andrzej Kubiczek
!!!END: 2022-03-29
!!!EED: Andrzej Kubiczek
!!!EEV: 2022-03-29
!!!ENC-modern: Andrzej Borzym
!!!END-modern: 2022-08-31
